!!!!SEGMENT: pl-wtm--r-909-m--005_moniuszko-stanislaw--witolorauda.krn
!!!cenid: 18xx:2867
!!!COM: Moniuszko, Stanisław
!!!COM-rismid: pe30008351
!!!CDT: 1819/05/05-1872/06/04
!!!CNT: Polish
!!!GTL: Witolorauda
!!!OTL: 5.
!!!PDT: 1893
!!!AGN:
!!!SMS-siglum: PL-Wtm
!!!SMS-shelfmark: R 909/M
!!!SMS-shelfwork: 005 G
!!!SMS-variant:
!!!SMS-altvar:
!!!NIFC-rismid: 1001099305
!!!URL-scan: http://repozytorium.nifc.pl/skany/pl-wtm-nut--r909m
!!!ONB-nifc: UWAGA: numeracja plików 001-005 zgodna z numeracją Raud w źródle
!!!AIN: 1 cello 2 clars 1 cor 2 empty 1 fagot 1 flt 1 oboe 1 tromp 2 tromt 1 viola 2 violn 1 vox
!!!key:
**kern	**dynam	**kern	**dynam	**kern	**dynam	**kern	**text	**dynam	**kern	**dynam	**kern	**dynam	**kern	**dynam	**kern	**kern	**dynam	**kern	**dynam	**kern	**dynam	**kern	**dynam	**kern	**kern	**kern	**kern	**kern
*part16	*part16	*part15	*part15	*part14	*part14	*part14	*part14	*part14	*part13	*part13	*part12	*part12	*part11	*part11	*part10	*part9	*part9	*part8	*part8	*part7	*part7	*part6	*part6	*part5	*part4	*part3	*part2	*part1
*staff17	*	*staff16	*	*staff15	*	*staff14	*staff14	*	*staff13	*	*staff12	*	*staff11	*	*staff10	*staff9	*	*staff8	*	*staff7	*	*staff6	*	*staff5	*staff4	*staff3	*staff2	*staff1
*Iempty	*	*Icello	*	*Ivox	*	*Ivox	*	*	*Iviola	*	*Ivioln	*	*Ivioln	*	*Iempty	*Itromt	*	*Itromt	*	*Itromp	*	*Icor	*	*Ifagot	*Iclars	*Iclars	*Ioboe	*Iflt
*I"Baſso	*	*I"Cello	*	*I"Chór	*	*I"Chór	*	*	*I"Viola	*	*I"Violino II	*	*I"Violino I	*	*I"Cassa	*I"Trombon 3	*	*I"Tromboni 1/2	*	*I"Trombi 1/2 F	*	*I"Corni 1/2 F	*	*I"Fagotti	*I"Clarinetto 2	*I"Clarinetto I	*I"Oboa	*I"Flauto
*I'cb	*	*I'vlc	*	*I'coro	*	*I'coro	*	*	*I'vla	*	*I'vl 2	*	*I'vl 1	*	*I'cassa	*I'trb 3	*	*I'trb 1 and 2	*	*I'tr 1 and 2	*	*I'cor 1 and 2	*	*I'fag	*I'cl 2	*I'cl 1	*I'ob	*I'fl
*clefF4	*	*clefF4	*	*clefF4	*	*clefG2	*	*	*clefC3	*	*clefG2	*	*clefG2	*	*clefF4	*clefF4	*	*clefF4	*	*clefG2	*	*clefG2	*	*clefF4	*clefG2	*clefG2	*clefG2	*clefG2
*ITrd0c0	*	*	*	*	*	*	*	*	*	*	*	*	*	*	*	*	*	*	*	*ITrd-3c-5	*	*ITrd4c7	*	*	*ITrd1c2	*ITrd1c2	*	*
*k[b-]	*	*k[b-]	*	*k[b-]	*	*k[b-]	*	*	*k[b-]	*	*k[b-]	*	*k[b-]	*	*	*k[b-]	*	*k[b-]	*	*k[b-]	*	*k[b-]	*	*k[b-]	*k[b-]	*k[b-]	*k[b-]	*k[b-]
*d:	*	*d:	*	*d:	*	*d:	*	*	*d:	*	*d:	*	*d:	*	*	*d:	*	*d:	*	*d:	*	*d:	*	*d:	*d:	*d:	*d:	*d:
*M4/4	*	*M4/4	*	*M4/4	*	*M4/4	*	*	*M4/4	*	*M4/4	*	*M4/4	*	*M4/4	*M4/4	*	*M4/4	*	*M4/4	*	*M4/4	*	*M4/4	*M4/4	*M4/4	*M4/4	*M4/4
*met(c)	*	*met(c)	*	*met(c)	*	*met(c)	*	*	*met(c)	*	*met(c)	*	*met(c)	*	*met(c)	*met(c)	*	*met(c)	*	*met(c)	*	*met(c)	*	*met(c)	*met(c)	*met(c)	*met(c)	*met(c)
=1	=1	=1	=1	=1	=1	=1	=1	=1	=1	=1	=1	=1	=1	=1	=1	=1	=1	=1	=1	=1	=1	=1	=1	=1	=1	=1	=1	=1
*	*	*tremolo	*	*	*	*	*	*	*tremolo	*	*tremolo	*	*tremolo	*	*	*	*	*	*	*	*	*	*	*	*	*	*	*
!	!	!	!	!	!	!LO:TX:a:t=P:problem=w źródle podpis partii - "Chór" zapisany tylko jednokrotnie, przed dwoma pięcioliniami tej partii	!	!	!	!	!	!	!	!	!	!	!	!	!	!	!	!	!	!	!	!	!	!LO:TX:a:t=Molto agitato
!	!	!	!	!	!	!	!	!	!	!	!	!	!LO:TX:a:t=Molto agitato	!	!	!	!	!	!	!	!	!	!	!	!	!	!	!LO:TX:a:t=Rauda 5ta
!	!	!	!	!	!	!	!	!	!	!	!	!	!	!	!	!	!	!	!	!	!	!	!	!	!	!	!	!LO:TX:a:i:t=N 5:color=red
!	!	!	!	!	!	!	!	!	!	!	!	!	!	!	!	!	!	!	!	!	!	!	!	!	!	!	!	!LO:TX:a:i:t=N 9:color=grey
8D\L	.	16D\LL	.	1ryy	.	1ryy	.	.	16d\LL	.	16d/LL	.	16d/LL	.	1ryy	1ryy	.	1ryy	.	1ryy	.	1ryy	.	1ryy	1ryy	1ryy	1ryy	1ryy
.	.	16D\	.	.	.	.	.	.	16d\	.	16d/	.	16d/	.	.	.	.	.	.	.	.	.	.	.	.	.	.	.
8E\	.	16E\	.	.	.	.	.	.	16e\	.	16e/	.	16e/	.	.	.	.	.	.	.	.	.	.	.	.	.	.	.
.	.	16E\	.	.	.	.	.	.	16e\	.	16e/	.	16e/	.	.	.	.	.	.	.	.	.	.	.	.	.	.	.
8F\	.	16F\	.	.	.	.	.	.	16f\	.	16f/	.	16f/	.	.	.	.	.	.	.	.	.	.	.	.	.	.	.
.	.	16F\	.	.	.	.	.	.	16f\	.	16f/	.	16f/	.	.	.	.	.	.	.	.	.	.	.	.	.	.	.
8F#X\J	.	16F#X\	.	.	.	.	.	.	16f#X\	.	16f#X/	.	16f#X/	.	.	.	.	.	.	.	.	.	.	.	.	.	.	.
.	.	16F#\JJ	.	.	.	.	.	.	16f#\JJ	.	16f#/JJ	.	16f#/JJ	.	.	.	.	.	.	.	.	.	.	.	.	.	.	.
8GG\L	.	16G\LL	.	.	.	.	.	.	16g\LL	.	16g\LL	.	16g\LL	.	.	.	.	.	.	.	.	.	.	.	.	.	.	.
.	.	16G\	.	.	.	.	.	.	16g\	.	16g\	.	16g\	.	.	.	.	.	.	.	.	.	.	.	.	.	.	.
8AA\	.	16A\	.	.	.	.	.	.	16a\	.	16a\	.	16a\	.	.	.	.	.	.	.	.	.	.	.	.	.	.	.
.	.	16A\	.	.	.	.	.	.	16a\	.	16a\	.	16a\	.	.	.	.	.	.	.	.	.	.	.	.	.	.	.
8BBn\	.	16Bn\	.	.	.	.	.	.	16bn\	.	16bn\	.	16bn\	.	.	.	.	.	.	.	.	.	.	.	.	.	.	.
.	.	16B\	.	.	.	.	.	.	16b\	.	16b\	.	16b\	.	.	.	.	.	.	.	.	.	.	.	.	.	.	.
8C#X\J	.	16c#X\	.	.	.	.	.	.	16cc#X\	.	16cc#X\	.	16cc#X\	.	.	.	.	.	.	.	.	.	.	.	.	.	.	.
.	.	16c#\JJ	.	.	.	.	.	.	16cc#\JJ	.	16cc#\JJ	.	16cc#\JJ	.	.	.	.	.	.	.	.	.	.	.	.	.	.	.
=2	=2	=2	=2	=2	=2	=2	=2	=2	=2	=2	=2	=2	=2	=2	=2	=2	=2	=2	=2	=2	=2	=2	=2	=2	=2	=2	=2	=2
8D\L	.	16d\LL	.	1ryy	.	1ryy	.	.	16ddLL 16d\	.	16ddLL 16d/	.	16dd\LL	.	1ryy	1ryy	.	1ryy	.	1ryy	.	1ryy	.	1ryy	1ryy	1ryy	1ryy	1ryy
.	.	16d\	.	.	.	.	.	.	16dd 16d\	.	16dd 16d/	.	16dd\	.	.	.	.	.	.	.	.	.	.	.	.	.	.	.
8E\	.	16e\	.	.	.	.	.	.	16e\	.	16e/	.	16ee\	.	.	.	.	.	.	.	.	.	.	.	.	.	.	.
.	.	16e\	.	.	.	.	.	.	16e\	.	16e/	.	16ee\	.	.	.	.	.	.	.	.	.	.	.	.	.	.	.
8F\	.	16f\	.	.	.	.	.	.	16f\	.	16f/	.	16ff\	.	.	.	.	.	.	.	.	.	.	.	.	.	.	.
.	.	16f\	.	.	.	.	.	.	16f\	.	16f/	.	16ff\	.	.	.	.	.	.	.	.	.	.	.	.	.	.	.
8C#X\J	.	16c#X\	.	.	.	.	.	.	16c#X\	.	16c#X/	.	16cc#X\	.	.	.	.	.	.	.	.	.	.	.	.	.	.	.
.	.	16c#\JJ	.	.	.	.	.	.	16c#\JJ	.	16c#/JJ	.	16cc#\JJ	.	.	.	.	.	.	.	.	.	.	.	.	.	.	.
8D\L	.	16d\LL	.	.	.	.	.	.	16d\LL	.	16d/LL	.	16dd\LL	.	.	.	.	.	.	.	.	.	.	.	.	.	.	.
.	.	16d\	.	.	.	.	.	.	16d\	.	16d/	.	16dd\	.	.	.	.	.	.	.	.	.	.	.	.	.	.	.
8AA\	.	16A\	.	.	.	.	.	.	16A\	.	16a/	.	16a\	.	.	.	.	.	.	.	.	.	.	.	.	.	.	.
.	.	16A\	.	.	.	.	.	.	16A\	.	16a/	.	16a\	.	.	.	.	.	.	.	.	.	.	.	.	.	.	.
8BB-\	.	16B-\	.	.	.	.	.	.	16B-\	.	16b-/	.	16b-\	.	.	.	.	.	.	.	.	.	.	.	.	.	.	.
.	.	16B-\	.	.	.	.	.	.	16B-\	.	16b-/	.	16b-\	.	.	.	.	.	.	.	.	.	.	.	.	.	.	.
8FF#X\J	.	16F#X\	.	.	.	.	.	.	16F#X\	.	16f#X/	.	16f#X\	.	.	.	.	.	.	.	.	.	.	.	.	.	.	.
.	.	16F#\JJ	.	.	.	.	.	.	16F#\JJ	.	16f#/JJ	.	16f#\JJ	.	.	.	.	.	.	.	.	.	.	.	.	.	.	.
!!LO:PB:g=original
=3	=3	=3	=3	=3	=3	=3	=3	=3	=3	=3	=3	=3	=3	=3	=3	=3	=3	=3	=3	=3	=3	=3	=3	=3	=3	=3	=3	=3
!	!	!	!	!	!	!	!	!	!	!	!LO:TX:a:t=col Violino 1mo	!	!	!	!	!	!	!	!	!	!	!	!	!	!	!	!	!
8GG/L	.	16G\LL	.	1ryy	.	1ryy	.	.	16G/LL	.	16g\LLyy	.	16g\LL	.	1ryy	1ryy	.	1ryy	.	1ryy	.	1ryy	.	1ryy	1ryy	1ryy	1ryy	1ryy
.	.	16G\	.	.	.	.	.	.	16G/	.	16g\	.	16g\	.	.	.	.	.	.	.	.	.	.	.	.	.	.	.
8AA/	.	16A\	.	.	.	.	.	.	16A/	.	16a\yy	.	16a\	.	.	.	.	.	.	.	.	.	.	.	.	.	.	.
.	.	16A\	.	.	.	.	.	.	16A/	.	16a\	.	16a\	.	.	.	.	.	.	.	.	.	.	.	.	.	.	.
8BB-/	.	16B-\	.	.	.	.	.	.	16B-/	.	16b-\yy	.	16b-\	.	.	.	.	.	.	.	.	.	.	.	.	.	.	.
.	.	16B-\	.	.	.	.	.	.	16B-/	.	16b-\	.	16b-\	.	.	.	.	.	.	.	.	.	.	.	.	.	.	.
8FF#X/J	.	16F#X\	.	.	.	.	.	.	16F#X/	.	16f#X\yy	.	16f#X\	.	.	.	.	.	.	.	.	.	.	.	.	.	.	.
.	.	16F#\JJ	.	.	.	.	.	.	16F#/JJ	.	16f#\JJ	.	16f#\JJ	.	.	.	.	.	.	.	.	.	.	.	.	.	.	.
8GG/L	.	16G\LL	.	.	.	.	.	.	16G\LL	.	16g\LLyy	.	16g\LL	.	.	.	.	.	.	.	.	.	.	.	.	.	.	.
.	.	16G\	.	.	.	.	.	.	16G/	.	16g\	.	16g\	.	.	.	.	.	.	.	.	.	.	.	.	.	.	.
8BB-/	.	16B-\	.	.	.	.	.	.	16B-\	.	16b-\yy	.	16b-\	.	.	.	.	.	.	.	.	.	.	.	.	.	.	.
.	.	16B-\	.	.	.	.	.	.	16B-/	.	16b-\	.	16b-\	.	.	.	.	.	.	.	.	.	.	.	.	.	.	.
8E/	.	16e\	.	.	.	.	.	.	16en\	.	16een\yy	.	16een\	.	.	.	.	.	.	.	.	.	.	.	.	.	.	.
.	.	16e\	.	.	.	.	.	.	16e/	.	16ee\	.	16ee\	.	.	.	.	.	.	.	.	.	.	.	.	.	.	.
8D/J	.	16d\	.	.	.	.	.	.	16d\	.	16dd\yy	.	16dd\	.	.	.	.	.	.	.	.	.	.	.	.	.	.	.
.	.	16d\JJ	.	.	.	.	.	.	16d/JJ	.	16dd\JJ	.	16dd\JJ	.	.	.	.	.	.	.	.	.	.	.	.	.	.	.
=4	=4	=4	=4	=4	=4	=4	=4	=4	=4	=4	=4	=4	=4	=4	=4	=4	=4	=4	=4	=4	=4	=4	=4	=4	=4	=4	=4	=4
8C#X\L	.	16C#X\LL	.	1ryy	.	1ryy	.	.	16c#X\LL	.	16cc#X\LLyy	.	16cc#X\LL	.	1ryy	1ryy	.	1ryy	.	1ryy	.	1ryy	.	1ryy	1ryy	1ryy	1ryy	1ryy
.	.	16C#\	.	.	.	.	.	.	16c#\	.	16cc#\	.	16cc#\	.	.	.	.	.	.	.	.	.	.	.	.	.	.	.
8D\	.	16D\	.	.	.	.	.	.	16d\	.	16dd\yy	.	16dd\	.	.	.	.	.	.	.	.	.	.	.	.	.	.	.
.	.	16D\	.	.	.	.	.	.	16d\	.	16dd\	.	16dd\	.	.	.	.	.	.	.	.	.	.	.	.	.	.	.
8E\	.	16E\	.	.	.	.	.	.	16e\	.	16ee\yy	.	16ee\	.	.	.	.	.	.	.	.	.	.	.	.	.	.	.
.	.	16E\	.	.	.	.	.	.	16e\	.	16ee\	.	16ee\	.	.	.	.	.	.	.	.	.	.	.	.	.	.	.
8F\J	.	16F\	.	.	.	.	.	.	16f\	.	16ff\yy	.	16ff\	.	.	.	.	.	.	.	.	.	.	.	.	.	.	.
.	.	16F\JJ	.	.	.	.	.	.	16f\JJ	.	16ff\JJ	.	16ff\JJ	.	.	.	.	.	.	.	.	.	.	.	.	.	.	.
8G\L	.	16G\LL	.	.	.	.	.	.	16g\LL	.	16gg\LLyy	.	16gg\LL	.	.	.	.	.	.	.	.	.	.	.	.	.	.	.
.	.	16G\	.	.	.	.	.	.	16g\	.	16gg\	.	16gg\	.	.	.	.	.	.	.	.	.	.	.	.	.	.	.
8A\	.	16A\	.	.	.	.	.	.	16a\	.	16aa\yy	.	16aa\	.	.	.	.	.	.	.	.	.	.	.	.	.	.	.
.	.	16A\	.	.	.	.	.	.	16a\	.	16aa\	.	16aa\	.	.	.	.	.	.	.	.	.	.	.	.	.	.	.
8Bn\	.	16Bn\	.	.	.	.	.	.	16bn\	.	16bbn\yy	.	16bbn\	.	.	.	.	.	.	.	.	.	.	.	.	.	.	.
.	.	16B\	.	.	.	.	.	.	16b\	.	16bb\	.	16bb\	.	.	.	.	.	.	.	.	.	.	.	.	.	.	.
8c#X\J	.	16c#X\	.	.	.	.	.	.	16cc#X\	.	16ccc#X\yy	.	16ccc#X\	.	.	.	.	.	.	.	.	.	.	.	.	.	.	.
.	.	16c#\JJ	.	.	.	.	.	.	16cc#\JJ	.	16ccc#\JJ	.	16ccc#\JJ	.	.	.	.	.	.	.	.	.	.	.	.	.	.	.
*	*	*Xtremolo	*	*	*	*	*	*	*	*	*	*	*	*	*	*	*	*	*	*	*	*	*	*	*	*	*	*
=5	=5	=5	=5	=5	=5	=5	=5	=5	=5	=5	=5	=5	=5	=5	=5	=5	=5	=5	=5	=5	=5	=5	=5	=5	=5	=5	=5	=5
*	*	*	*	*	*	*	*	*	*	*	*	*	*	*	*	*2\right	*	*2\right	*	*	*	*2\right	*	*	*	*	*	*
!	!LO:DY:b:rj:t=fo	!	!LO:DY:b:rj:t=fo	!	!LO:DY:b:rj:t=fo	!	!	!LO:DY:b:rj:t=fo	!	!LO:DY:b:rj:t=fo	!	!LO:DY:b:rj:t=fo	!	!LO:DY:b:rj:t=fo	!	!	!LO:DY:b:rj:t=fo	!	!LO:DY:b:rj:t=fo	!	!LO:DY:b:rj:t=fo	!LO:TX:b:t=á dué:color=grey	!LO:DY:b:rj:t=fo	!	!	!	!	!
8d\L	f	8d\L	f	4D\	f	4d/	Już	f	16dd\LL	f	16ddd\LLyy	f	16ddd\LL	f	1ryy	2D\	f	2d 2A\	f	2f/	f	2a 2f\	f	1ryy	1ryy	1ryy	1ryy	1ryy
.	.	.	.	.	.	.	.	.	16dd\	.	16ddd\	.	16ddd\	.	.	.	.	.	.	.	.	.	.	.	.	.	.	.
8c\	.	8c\	.	.	.	.	.	.	16cc\	.	16ccc\yy	.	16ccc\	.	.	.	.	.	.	.	.	.	.	.	.	.	.	.
.	.	.	.	.	.	.	.	.	16cc\	.	16ccc\	.	16ccc\	.	.	.	.	.	.	.	.	.	.	.	.	.	.	.
8B-\	.	8B-\	.	8D\	.	8d/	się	.	16b-\	.	16bb-\yy	.	16bb-\	.	.	.	.	.	.	.	.	.	.	.	.	.	.	.
.	.	.	.	.	.	.	.	.	16b-\	.	16bb-\	.	16bb-\	.	.	.	.	.	.	.	.	.	.	.	.	.	.	.
8A\J	.	8A\J	.	8D\	.	8d/	duch	.	16a\	.	16aa\yy	.	16aa\	.	.	.	.	.	.	.	.	.	.	.	.	.	.	.
.	.	.	.	.	.	.	.	.	16a\JJ	.	16aa\JJ	.	16aa\JJ	.	.	.	.	.	.	.	.	.	.	.	.	.	.	.
8B-\L	.	8B-\L	.	4.d\	.	4.dd\	je-	.	16b-\LL	.	16bb-\LLyy	.	16bb-\LL	.	.	2D\	.	2r	.	2r	.	4.b- 4.g\	.	.	.	.	.	.
.	.	.	.	.	.	.	.	.	16b-\	.	16bb-\	.	16bb-\	.	.	.	.	.	.	.	.	.	.	.	.	.	.	.
8A\	.	8A\	.	.	.	.	.	.	16a\	.	16aa\yy	.	16aa\	.	.	.	.	.	.	.	.	.	.	.	.	.	.	.
.	.	.	.	.	.	.	.	.	16a\	.	16aa\	.	16aa\	.	.	.	.	.	.	.	.	.	.	.	.	.	.	.
8G\	.	8G\	.	.	.	.	.	.	16g\	.	16gg\yy	.	16gg\	.	.	.	.	.	.	.	.	.	.	.	.	.	.	.
.	.	.	.	.	.	.	.	.	16g\	.	16gg\	.	16gg\	.	.	.	.	.	.	.	.	.	.	.	.	.	.	.
8F\J	.	8F\J	.	8A\	.	8a\	-go	.	16f\	.	16ff\yy	.	16ff\	.	.	.	.	.	.	.	.	8a\	.	.	.	.	.	.
.	.	.	.	.	.	.	.	.	16f\JJ	.	16ff\JJ	.	16ff\JJ	.	.	.	.	.	.	.	.	.	.	.	.	.	.	.
=6	=6	=6	=6	=6	=6	=6	=6	=6	=6	=6	=6	=6	=6	=6	=6	=6	=6	=6	=6	=6	=6	=6	=6	=6	=6	=6	=6	=6
*	*	*	*	*	*	*	*	*	*	*	*	*	*	*	*	*	*	*	*	*	*	*	*	*2\right	*	*2\right	*	*
8G\L	.	8G\L	.	8.B-\	.	8.b-/	na	.	16g\LL	.	16gg\LLyy	.	16gg\LL	.	1ryy	2AA/	.	2c#X 2A\	.	2e/	.	2a 2g\	.	2AA/	2g/	2a\	8.ee\L	1aa
.	.	.	.	.	.	.	.	.	16g\	.	16gg\	.	16gg\	.	.	.	.	.	.	.	.	.	.	.	.	.	.	.
8F\	.	8F\	.	.	.	.	.	.	16f\	.	16ff\yy	.	16ff\	.	.	.	.	.	.	.	.	.	.	.	.	.	.	.
.	.	.	.	16A\	.	16a/	a-	.	16f\	.	16ff\	.	16ff\	.	.	.	.	.	.	.	.	.	.	.	.	.	16ff\Jk	.
8E\	.	8E\	.	8.G\	.	8.g/	-na-	.	16e\	.	16ee\yy	.	16ee\	.	.	.	.	.	.	.	.	.	.	.	.	.	8.gg\L	.
.	.	.	.	.	.	.	.	.	16e\	.	16ee\	.	16ee\	.	.	.	.	.	.	.	.	.	.	.	.	.	.	.
8D\J	.	8D\J	.	.	.	.	.	.	16d\	.	16dd\yy	.	16dd\	.	.	.	.	.	.	.	.	.	.	.	.	.	.	.
.	.	.	.	16F\	.	16f/	-fiel	.	16d\JJ	.	16dd\JJ	.	16dd\JJ	.	.	.	.	.	.	.	.	.	.	.	.	.	16aa\Jk	.
8C#X\L	.	8C#X\L	.	4E\	.	4e/	dra-	.	16c#X\LL	.	16cc#X\LLyy	.	16cc#X\LL	.	.	2D\	.	2d 2A\	.	2d/	.	2a 2f\	.	2D\	2f/	2a\	(>4bb-\	.
.	.	.	.	.	.	.	.	.	16c#/	.	16cc#\	.	16cc#\	.	.	.	.	.	.	.	.	.	.	.	.	.	.	.
8Cn\	.	8Cn\	.	.	.	.	.	.	16cn\	.	16ccn\yy	.	16ccn\	.	.	.	.	.	.	.	.	.	.	.	.	.	.	.
.	.	.	.	.	.	.	.	.	16c/	.	16cc\	.	16cc\	.	.	.	.	.	.	.	.	.	.	.	.	.	.	.
8BBn\	.	8BBn\	.	8D\	.	8d/	-pie	.	16Bn\	.	16bn\yy	.	16bn\	.	.	.	.	.	.	.	.	.	.	.	.	.	4aa\)	.
.	.	.	.	.	.	.	.	.	16B/	.	16b\	.	16b\	.	.	.	.	.	.	.	.	.	.	.	.	.	.	.
8BB-X\J	.	8BB-X\J	.	8r	.	8r	.	.	16B-X\	.	16b-X\yy	.	16b-X\	.	.	.	.	.	.	.	.	.	.	.	.	.	.	.
.	.	.	.	.	.	.	.	.	16B-/JJ	.	16b-\JJ	.	16b-\JJ	.	.	.	.	.	.	.	.	.	.	.	.	.	.	.
=7	=7	=7	=7	=7	=7	=7	=7	=7	=7	=7	=7	=7	=7	=7	=7	=7	=7	=7	=7	=7	=7	=7	=7	=7	=7	=7	=7	=7
8AA/L	.	8AA/L	.	4A\	.	4a/	Po	.	16A\LL	.	16a\LLyy	.	16a\LL	.	1ryy	4AA/	.	4c#X 4A\	.	4e/	.	4a 4g\	.	1ryy	1ryy	1ryy	1ryy	1ryy
.	.	.	.	.	.	.	.	.	16A\	.	16a\	.	16a\	.	.	.	.	.	.	.	.	.	.	.	.	.	.	.
8C#X/	.	8C#X/	.	.	.	.	.	.	16c#X\	.	16cc#X\yy	.	16cc#X\	.	.	.	.	.	.	.	.	.	.	.	.	.	.	.
.	.	.	.	.	.	.	.	.	16c#\	.	16cc#\	.	16cc#\	.	.	.	.	.	.	.	.	.	.	.	.	.	.	.
8D/	.	8D/	.	8A\	.	8a/	sliż-	.	16d\	.	16dd\yy	.	16dd\	.	.	4D\	.	4d 4A\	.	4d/	.	4a 4f\	.	.	.	.	.	.
.	.	.	.	.	.	.	.	.	16d\	.	16dd\	.	16dd\	.	.	.	.	.	.	.	.	.	.	.	.	.	.	.
8F/J	.	8F/J	.	8A\	.	8a/	-kiej	.	16f\	.	16ff\yy	.	16ff\	.	.	.	.	.	.	.	.	.	.	.	.	.	.	.
.	.	.	.	.	.	.	.	.	16f\JJ	.	16ff\JJ	.	16ff\JJ	.	.	.	.	.	.	.	.	.	.	.	.	.	.	.
8A\L	.	8A\L	.	4A\	.	4a/	dro-	.	16a\LL	.	16aa\LLyy	.	16aa\LL	.	.	4AA/	.	4c# 4A\	.	4e/	.	4a 4g\	.	.	.	.	.	.
.	.	.	.	.	.	.	.	.	16a\	.	16aa\	.	16aa\	.	.	.	.	.	.	.	.	.	.	.	.	.	.	.
8C#X\	.	8c#X\	.	.	.	.	.	.	16cc#X\	.	16ccc#X\yy	.	16ccc#X\	.	.	.	.	.	.	.	.	.	.	.	.	.	.	.
.	.	.	.	.	.	.	.	.	16cc#\	.	16ccc#\	.	16ccc#\	.	.	.	.	.	.	.	.	.	.	.	.	.	.	.
8D\	.	8d\	.	8A\	.	8a/	-dze	.	16dd\	.	16ddd\yy	.	16ddd\	.	.	4D\	.	4d 4A\	.	4d/	.	4a 4f\	.	.	.	.	.	.
.	.	.	.	.	.	.	.	.	16dd\	.	16ddd\	.	16ddd\	.	.	.	.	.	.	.	.	.	.	.	.	.	.	.
8F\J	.	8f\J	.	8A\	.	8a/	szpo-	.	16ff\	.	16fff\yy	.	16fff\	.	.	.	.	.	.	.	.	.	.	.	.	.	.	.
.	.	.	.	.	.	.	.	.	16ff\JJ	.	16fff\JJ	.	16fff\JJ	.	.	.	.	.	.	.	.	.	.	.	.	.	.	.
!!LO:PB:g=original
=8	=8	=8	=8	=8	=8	=8	=8	=8	=8	=8	=8	=8	=8	=8	=8	=8	=8	=8	=8	=8	=8	=8	=8	=8	=8	=8	=8	=8
8A\L	.	8a\L	.	4A\	.	4a/	-na-	.	16aa\LL	.	16fff\LLyy	.	16fff\LL	.	1ryy	2.D\	.	2.d 2.A\	.	2.d/	.	2.a 2.f\	.	1ryy	1ryy	1ryy	1ryy	1ryy
.	.	.	.	.	.	.	.	.	16aa\	.	16fff\	.	16fff\	.	.	.	.	.	.	.	.	.	.	.	.	.	.	.
8G\	.	8g\	.	.	.	.	.	.	16gg\	.	16eee\yy	.	16eee\	.	.	.	.	.	.	.	.	.	.	.	.	.	.	.
.	.	.	.	.	.	.	.	.	16gg\	.	16eee\	.	16eee\	.	.	.	.	.	.	.	.	.	.	.	.	.	.	.
8F\	.	8f\	.	8A\	.	8a/	-mi	.	16ff\	.	16fff\yy	.	16fff\	.	.	.	.	.	.	.	.	.	.	.	.	.	.	.
.	.	.	.	.	.	.	.	.	16ff\	.	16fff\	.	16fff\	.	.	.	.	.	.	.	.	.	.	.	.	.	.	.
8E\J	.	8e\J	.	8A\	.	8a/	ja-	.	16ee\	.	16eee\yy	.	16eee\	.	.	.	.	.	.	.	.	.	.	.	.	.	.	.
.	.	.	.	.	.	.	.	.	16ee\JJ	.	16eee\JJ	.	16eee\JJ	.	.	.	.	.	.	.	.	.	.	.	.	.	.	.
8F\L	.	8f\L	.	4A\	.	4a/	-strzę-	.	16ff\LL	.	16fff\LLyy	.	16fff\LL	.	.	.	.	.	.	.	.	.	.	.	.	.	.	.
.	.	.	.	.	.	.	.	.	16ff\	.	16fff\	.	16fff\	.	.	.	.	.	.	.	.	.	.	.	.	.	.	.
8E\	.	8e\	.	.	.	.	.	.	16ee\	.	16eee\yy	.	16eee\	.	.	.	.	.	.	.	.	.	.	.	.	.	.	.
.	.	.	.	.	.	.	.	.	16ee\	.	16eee\	.	16eee\	.	.	.	.	.	.	.	.	.	.	.	.	.	.	.
8D\	.	8d\	.	8A\	.	8a/	-bia	.	16dd\	.	16ddd\yy	.	16ddd\	.	.	4AA\	.	4c#X 4A\	.	4e/	.	4a 4g\	.	.	.	.	.	.
.	.	.	.	.	.	.	.	.	16dd\	.	16ddd\	.	16ddd\	.	.	.	.	.	.	.	.	.	.	.	.	.	.	.
8C#X\J	.	8c#X\J	.	8r	.	8r	.	.	16cc\	.	16ccc\yy	.	16ccc\	.	.	.	.	.	.	.	.	.	.	.	.	.	.	.
.	.	.	.	.	.	.	.	.	16cc\JJ	.	16ccc\JJ	.	16ccc\JJ	.	.	.	.	.	.	.	.	.	.	.	.	.	.	.
=9	=9	=9	=9	=9	=9	=9	=9	=9	=9	=9	=9	=9	=9	=9	=9	=9	=9	=9	=9	=9	=9	=9	=9	=9	=9	=9	=9	=9
8d\L	.	8d\L	.	4D\	.	4d/	Pa-	.	16dd\LL	.	16ddd\LLyy	.	16ddd\LL	.	1ryy	1D	.	2d 2A\	.	2f/	.	2a 2f\	.	1ryy	1ryy	1ryy	1ryy	1ryy
.	.	.	.	.	.	.	.	.	16dd\	.	16ddd\	.	16ddd\	.	.	.	.	.	.	.	.	.	.	.	.	.	.	.
8c\	.	8c\	.	.	.	.	.	.	16cc\	.	16ccc\yy	.	16ccc\	.	.	.	.	.	.	.	.	.	.	.	.	.	.	.
.	.	.	.	.	.	.	.	.	16cc\	.	16ccc\	.	16ccc\	.	.	.	.	.	.	.	.	.	.	.	.	.	.	.
8B-\	.	8B-\	.	8D\	.	8d/	-zu-	.	16b-\	.	16bb-\yy	.	16bb-\	.	.	.	.	.	.	.	.	.	.	.	.	.	.	.
.	.	.	.	.	.	.	.	.	16b-\	.	16bb-\	.	16bb-\	.	.	.	.	.	.	.	.	.	.	.	.	.	.	.
8A\J	.	8A\J	.	8D\	.	8d/	-ry	.	16a\	.	16aa\yy	.	16aa\	.	.	.	.	.	.	.	.	.	.	.	.	.	.	.
.	.	.	.	.	.	.	.	.	16a\JJ	.	16aa\JJ	.	16aa\JJ	.	.	.	.	.	.	.	.	.	.	.	.	.	.	.
8B-\L	.	8B-\L	.	4.d\	.	4.dd\	wil-	.	16b-\LL	.	16bb-\LLyy	.	16bb-\LL	.	.	.	.	4.B-\	.	2r	.	4.b- 4.g\	.	.	.	.	.	.
.	.	.	.	.	.	.	.	.	16b-\	.	16bb-\	.	16bb-\	.	.	.	.	.	.	.	.	.	.	.	.	.	.	.
8A\	.	8A\	.	.	.	.	.	.	16a\	.	16aa\yy	.	16aa\	.	.	.	.	.	.	.	.	.	.	.	.	.	.	.
.	.	.	.	.	.	.	.	.	16a\	.	16aa\	.	16aa\	.	.	.	.	.	.	.	.	.	.	.	.	.	.	.
8G\	.	8G\	.	.	.	.	.	.	16g\	.	16gg\yy	.	16gg\	.	.	.	.	.	.	.	.	.	.	.	.	.	.	.
.	.	.	.	.	.	.	.	.	16g\	.	16gg\	.	16gg\	.	.	.	.	.	.	.	.	.	.	.	.	.	.	.
8F\J	.	8F\J	.	8A\	.	8a\	-cze	.	16f\	.	16ff\yy	.	16ff\	.	.	.	.	8A\	.	.	.	8a\	.	.	.	.	.	.
.	.	.	.	.	.	.	.	.	16f\JJ	.	16ff\JJ	.	16ff\JJ	.	.	.	.	.	.	.	.	.	.	.	.	.	.	.
=10	=10	=10	=10	=10	=10	=10	=10	=10	=10	=10	=10	=10	=10	=10	=10	=10	=10	=10	=10	=10	=10	=10	=10	=10	=10	=10	=10	=10
8G\L	.	8G\L	.	8B-\	.	8b-\	i	.	16g\LL	.	16gg\LLyy	.	16gg\LL	.	1ryy	2BB-/	.	2d 2G\	.	2d/	.	1b- 1g	.	1ryy	1ryy	1ryy	1ryy	1ryy
.	.	.	.	.	.	.	.	.	16g\	.	16gg\	.	16gg\	.	.	.	.	.	.	.	.	.	.	.	.	.	.	.
8F\	.	8F\	.	8A\	.	8a/	ry-	.	16f\	.	16ff\yy	.	16ff\	.	.	.	.	.	.	.	.	.	.	.	.	.	.	.
.	.	.	.	.	.	.	.	.	16f\	.	16ff\	.	16ff\	.	.	.	.	.	.	.	.	.	.	.	.	.	.	.
8E\	.	8E\	.	8G\	.	8g/	-sie	.	16e\	.	16ee\yy	.	16ee\	.	.	.	.	.	.	.	.	.	.	.	.	.	.	.
.	.	.	.	.	.	.	.	.	16e\	.	16ee\	.	16ee\	.	.	.	.	.	.	.	.	.	.	.	.	.	.	.
8D\J	.	8D\J	.	8F\	.	8f/	za-	.	16d\	.	16dd\yy	.	16dd\	.	.	.	.	.	.	.	.	.	.	.	.	.	.	.
.	.	.	.	.	.	.	.	.	16d\JJ	.	16dd\JJ	.	16dd\JJ	.	.	.	.	.	.	.	.	.	.	.	.	.	.	.
8C/L	.	8C/L	.	4c\	.	4cc\	-głę-	.	16c\LL	.	16cc\LLyy	.	16cc\LL	.	.	2C/	.	2e 2B-\	.	2e/	.	.	.	.	.	.	.	.
.	.	.	.	.	.	.	.	.	16c\	.	16cc\	.	16cc\	.	.	.	.	.	.	.	.	.	.	.	.	.	.	.
8BB-/	.	8BB-/	.	.	.	.	.	.	16B-\	.	16b-\yy	.	16b-\	.	.	.	.	.	.	.	.	.	.	.	.	.	.	.
.	.	.	.	.	.	.	.	.	16B-\	.	16b-\	.	16b-\	.	.	.	.	.	.	.	.	.	.	.	.	.	.	.
8AA/	.	8AA/	.	8C\	.	8c/	-bia	.	16A\	.	16a\yy	.	16a\	.	.	.	.	.	.	.	.	.	.	.	.	.	.	.
.	.	.	.	.	.	.	.	.	16A\	.	16a\	.	16a\	.	.	.	.	.	.	.	.	.	.	.	.	.	.	.
8GG/J	.	8GG/J	.	8r	.	8r	.	.	16G\	.	16g\yy	.	16g\	.	.	.	.	.	.	.	.	.	.	.	.	.	.	.
.	.	.	.	.	.	.	.	.	16G\JJ	.	16g\JJ	.	16g\JJ	.	.	.	.	.	.	.	.	.	.	.	.	.	.	.
=11	=11	=11	=11	=11	=11	=11	=11	=11	=11	=11	=11	=11	=11	=11	=11	=11	=11	=11	=11	=11	=11	=11	=11	=11	=11	=11	=11	=11
8FF\L	.	8FF\L	.	4F\	.	4f/	a	.	16F\LL	.	16f\LLyy	.	16f\LL	.	1ryy	4F\	.	4c 4A\	.	4f/	.	4a 4f\	.	4F\	4f/	4f/	1cc	1ccc
.	.	.	.	.	.	.	.	.	16F\	.	16f\	.	16f\	.	.	.	.	.	.	.	.	.	.	.	.	.	.	.
8AA\	.	8AA\	.	.	.	.	.	.	16A\	.	16a\yy	.	16a\	.	.	.	.	.	.	.	.	.	.	.	.	.	.	.
.	.	.	.	.	.	.	.	.	16A\	.	16a\	.	16a\	.	.	.	.	.	.	.	.	.	.	.	.	.	.	.
8C\	.	8C\	.	8E 8C\	.	8g 8e/	koń	.	16c\	.	16cc\yy	.	16cc\	.	.	8C\L	.	8cL 8G\	.	8g/L	.	4g 4c\	.	4C\	4e/	4g/	.	.
.	.	.	.	.	.	.	.	.	16c\	.	16cc\	.	16cc\	.	.	.	.	.	.	.	.	.	.	.	.	.	.	.
8E\J	.	8E\J	.	8E 8C\	.	8g 8e/	czy	.	16e\	.	16ee\yy	.	16ee\	.	.	8C\J	.	8cJ 8G\	.	8g/J	.	.	.	.	.	.	.	.
.	.	.	.	.	.	.	.	.	16e\JJ	.	16ee\JJ	.	16ee\JJ	.	.	.	.	.	.	.	.	.	.	.	.	.	.	.
8F\L	.	8F\L	.	4F\	.	4a 4f/	pars-	.	16f\LL	.	16ff\LLyy	.	16ff\LL	.	.	4F\	.	4c 4A\	.	4a/	.	4a 4f\	.	4F\	4f/	4f/	.	.
.	.	.	.	.	.	.	.	.	16f\	.	16ff\	.	16ff\	.	.	.	.	.	.	.	.	.	.	.	.	.	.	.
8A\	.	8A\	.	.	.	.	.	.	16a\	.	16aa\yy	.	16aa\	.	.	.	.	.	.	.	.	.	.	.	.	.	.	.
.	.	.	.	.	.	.	.	.	16a\	.	16aa\	.	16aa\	.	.	.	.	.	.	.	.	.	.	.	.	.	.	.
8c\	.	8c\	.	8G 8C\	.	8cc 8e/	-ka	.	16cc\	.	16ccc\yy	.	16ccc\	.	.	8C\L	.	8cL 8G\	.	8cc/L	.	4g 4c\	.	4C\	4e/	4g/	.	.
.	.	.	.	.	.	.	.	.	16cc\	.	16ccc\	.	16ccc\	.	.	.	.	.	.	.	.	.	.	.	.	.	.	.
8e\J	.	8e\J	.	8G 8C\	.	8cc 8e/	i	.	16ee\	.	16eee\yy	.	16eee\	.	.	8C\J	.	8cJ 8G\	.	8cc/J	.	.	.	.	.	.	.	.
.	.	.	.	.	.	.	.	.	16ee\JJ	.	16eee\JJ	.	16eee\JJ	.	.	.	.	.	.	.	.	.	.	.	.	.	.	.
!!LO:PB:g=original
=12	=12	=12	=12	=12	=12	=12	=12	=12	=12	=12	=12	=12	=12	=12	=12	=12	=12	=12	=12	=12	=12	=12	=12	=12	=12	=12	=12	=12
*	*	*	*	*	*	*^	*	*	*	*	*	*	*	*	*	*	*	*^	*	*	*	*^	*	*	*	*	*	*
*	*	*	*	*2\right	*	*2\right	*	*	*	*	*	*	*	*	*	*	*	*	*	*	*	*2\right	*	*	*	*	*	*	*	*2\right	*2\right
!LO:TX:a:t=col Cello	!	!	!	!	!	!	!	!	!	!	!	!	!	!	!	!	!	!	!	!	!	!	!	!	!	!	!	!	!	!	!
!	!	!	!	!	!	!	!	!	!	!	!	!	!	!	!	!	!	!	!LO:N:vis=2.	!	!	!	!	!	!	!	!	!	!	!	!
8f\Lyy	.	8f\L	.	2F\	.	2ff 2f\	2ryy	obra-	.	16ff\LL	.	16fff\LLyy	.	16fff\LL	.	1ryy	2F\	.	2c 2A\	2ryy	.	2ff\	.	2f 2F/	2ryy	.	2F\	2f/	2f/	2cc\	2ccc\
.	.	.	.	.	.	.	.	.	.	16ff\	.	16fff\	.	16fff\	.	.	.	.	.	.	.	.	.	.	.	.	.	.	.	.	.
8e\yy	.	8e\	.	.	.	.	.	.	.	16ee\	.	16eee\yy	.	16eee\	.	.	.	.	.	.	.	.	.	.	.	.	.	.	.	.	.
.	.	.	.	.	.	.	.	.	.	16ee\	.	16eee\	.	16eee\	.	.	.	.	.	.	.	.	.	.	.	.	.	.	.	.	.
8d\yy	.	8d\	.	.	.	.	.	.	.	16dd\	.	16ddd\yy	.	16ddd\	.	.	.	.	.	.	.	.	.	.	.	.	.	.	.	.	.
.	.	.	.	.	.	.	.	.	.	16dd\	.	16ddd\	.	16ddd\	.	.	.	.	.	.	.	.	.	.	.	.	.	.	.	.	.
8c#X\Jyy	.	8c#X\J	.	.	.	.	.	.	.	16cc#X\	.	16ccc#X\yy	.	16ccc#X\	.	.	.	.	.	.	.	.	.	.	.	.	.	.	.	.	.
.	.	.	.	.	.	.	.	.	.	16cc#\JJ	.	16ccc#\JJ	.	16ccc#\JJ	.	.	.	.	.	.	.	.	.	.	.	.	.	.	.	.	.
8d\Lyy	.	8d\L	.	4F\	.	4f/	4f\	-pie	.	16dd\LL	.	16ddd\LLyy	.	16ddd\LL	.	.	4FF/	.	4F/	4F\	.	4f/	.	4F/	4F\	.	4F\	4f/	4f/	4a/	4ff\
.	.	.	.	.	.	.	.	.	.	16dd\	.	16ddd\	.	16ddd\	.	.	.	.	.	.	.	.	.	.	.	.	.	.	.	.	.
8cn\yy	.	8cn\	.	.	.	.	.	.	.	16ccn\	.	16cccn\yy	.	16cccn\	.	.	.	.	.	.	.	.	.	.	.	.	.	.	.	.	.
.	.	.	.	.	.	.	.	.	.	16cc\	.	16ccc\	.	16ccc\	.	.	.	.	.	.	.	.	.	.	.	.	.	.	.	.	.
8B-\yy	.	8B-\	.	8r	.	8r	8ryy	.	.	16b-\	.	16bb-\yy	.	16bb-\	.	.	4r	.	8r	4ryy	.	4r	.	4r	4ryy	.	4r	4r	4r	4r	4r
.	.	.	.	.	.	.	.	.	.	16b-\	.	16bb-\	.	16bb-\	.	.	.	.	.	.	.	.	.	.	.	.	.	.	.	.	.
8A\Jyy	.	8A\J	.	8A\	.	8a/	8a\	Na	.	16a\	.	16aa\yy	.	16aa\	.	.	.	.	8A\	.	.	.	.	.	.	.	.	.	.	.	.
.	.	.	.	.	.	.	.	.	.	16a\JJ	.	16aa\JJ	.	16aa\JJ	.	.	.	.	.	.	.	.	.	.	.	.	.	.	.	.	.
*	*	*	*	*	*	*v	*v	*	*	*	*	*	*	*	*	*	*	*	*v	*v	*	*	*	*v	*v	*	*	*	*	*	*
=13	=13	=13	=13	=13	=13	=13	=13	=13	=13	=13	=13	=13	=13	=13	=13	=13	=13	=13	=13	=13	=13	=13	=13	=13	=13	=13	=13	=13
8G\Lyy	.	8G\L	.	4.G\	.	4.b-\	pró-	.	16b-\LL	.	16bb-\LLyy	.	16bb-\LL	.	1ryy	1ryy	.	4.B- 4.G\	.	1ryy	.	1ryy	.	2r	2r	2r	2r	2r
.	.	.	.	.	.	.	.	.	16b-\	.	16bb-\	.	16bb-\	.	.	.	.	.	.	.	.	.	.	.	.	.	.	.
8F\yy	.	8F\	.	.	.	.	.	.	16a\	.	16aa\yy	.	16aa\	.	.	.	.	.	.	.	.	.	.	.	.	.	.	.
.	.	.	.	.	.	.	.	.	16a\	.	16aa\	.	16aa\	.	.	.	.	.	.	.	.	.	.	.	.	.	.	.
8E\yy	.	8E\	.	.	.	.	.	.	16g\	.	16gg\yy	.	16gg\	.	.	.	.	.	.	.	.	.	.	.	.	.	.	.
.	.	.	.	.	.	.	.	.	16g\	.	16gg\	.	16gg\	.	.	.	.	.	.	.	.	.	.	.	.	.	.	.
8D\Jyy	.	8D\J	.	8G\	.	8b-\	-żno	.	16f\	.	16ff\yy	.	16ff\	.	.	.	.	8B- 8G\	.	.	.	.	.	.	.	.	.	.
.	.	.	.	.	.	.	.	.	16f\JJ	.	16ff\JJ	.	16ff\JJ	.	.	.	.	.	.	.	.	.	.	.	.	.	.	.
*	*	*	*	*	*	*	*	*	*	*	*	*	*	*	*	*	*	*	*	*	*	*	*	*	*2\right	*	*	*
8C#X/Lyy	.	8C#X/L	.	4A\	.	4a\	Wi-	.	16e\LL	.	16ee\LLyy	.	16ee\LL	.	.	.	.	4A\	.	.	.	.	.	2AA/	2a\	2a\	4cc#X\	4eee\
.	.	.	.	.	.	.	.	.	16e\	.	16ee\	.	16ee\	.	.	.	.	.	.	.	.	.	.	.	.	.	.	.
8AA/yy	.	8AA/	.	.	.	.	.	.	16c#X\	.	16cc#X\yy	.	16cc#X\	.	.	.	.	.	.	.	.	.	.	.	.	.	.	.
.	.	.	.	.	.	.	.	.	16c#\	.	16cc#\	.	16cc#\	.	.	.	.	.	.	.	.	.	.	.	.	.	.	.
8BBn/yy	.	8BBn/	.	8A\	.	8a\	-run	.	16d\	.	16dd\yy	.	16dd\	.	.	.	.	8A\L	.	.	.	.	.	.	.	.	4ee\	4aa\
.	.	.	.	.	.	.	.	.	16d\	.	16dd\	.	16dd\	.	.	.	.	.	.	.	.	.	.	.	.	.	.	.
8C#/Jyy	.	8C#/J	.	8A\	.	8a\	wy-	.	16e\	.	16ee\yy	.	16ee\	.	.	.	.	8A\J	.	.	.	.	.	.	.	.	.	.
.	.	.	.	.	.	.	.	.	16e\JJ	.	16ee\JJ	.	16ee\JJ	.	.	.	.	.	.	.	.	.	.	.	.	.	.	.
=14	=14	=14	=14	=14	=14	=14	=14	=14	=14	=14	=14	=14	=14	=14	=14	=14	=14	=14	=14	=14	=14	=14	=14	=14	=14	=14	=14	=14
8D\Lyy	.	8D\L	.	4G\	.	4b-\	-glą-	.	16f\LL	.	16ff\LLyy	.	16ff\LL	.	1ryy	1ryy	.	4B- 4G\	.	1ryy	.	1ryy	.	2r	2r	2r	2r	2r
.	.	.	.	.	.	.	.	.	16f\	.	16ff\	.	16ff\	.	.	.	.	.	.	.	.	.	.	.	.	.	.	.
8F\yy	.	8F\	.	.	.	.	.	.	16a\	.	16aa\yy	.	16aa\	.	.	.	.	.	.	.	.	.	.	.	.	.	.	.
.	.	.	.	.	.	.	.	.	16a\	.	16aa\	.	16aa\	.	.	.	.	.	.	.	.	.	.	.	.	.	.	.
8E\yy	.	8E\	.	8G\	.	8b-\	-da	.	16g\	.	16gg\yy	.	16gg\	.	.	.	.	8B-L 8G\	.	.	.	.	.	.	.	.	.	.
.	.	.	.	.	.	.	.	.	16g\	.	16gg\	.	16gg\	.	.	.	.	.	.	.	.	.	.	.	.	.	.	.
8D\Jyy	.	8D\J	.	8G\	.	8b-\	z pie-	.	16f\	.	16ff\yy	.	16ff\	.	.	.	.	8B-J 8G\	.	.	.	.	.	.	.	.	.	.
.	.	.	.	.	.	.	.	.	16f\JJ	.	16ff\JJ	.	16ff\JJ	.	.	.	.	.	.	.	.	.	.	.	.	.	.	.
!	!	!	!	!	!	!	!	!	!	!	!	!	!LO:TX:a:t=P:problem=w źródle dźwięk ee zapisany dwukrotnie	!	!	!	!	!LO:TX:a:t=à dué	!	!	!	!	!	!	!	!	!	!
8C#X/Lyy	.	8C#X/L	.	4.A\	.	4.a\	-cza-	.	16e\LL	.	16ee\LLyy	.	16ee\LL	.	.	.	.	4.A\	.	.	.	.	.	2AA/	2a\	2a\	4cc#X\	4eee\
.	.	.	.	.	.	.	.	.	16e\	.	16ee\	.	16ee\	.	.	.	.	.	.	.	.	.	.	.	.	.	.	.
8Cn/yy	.	8Cn/	.	.	.	.	.	.	16e\	.	16ee\yy	.	16ee\	.	.	.	.	.	.	.	.	.	.	.	.	.	.	.
.	.	.	.	.	.	.	.	.	16e\	.	16ee\	.	16ee\	.	.	.	.	.	.	.	.	.	.	.	.	.	.	.
8BBn/yy	.	8BBn/	.	.	.	.	.	.	16d#X\	.	16dd#X\yy	.	16dd#X\	.	.	.	.	.	.	.	.	.	.	.	.	.	4ee\	4aa\
.	.	.	.	.	.	.	.	.	16d#\	.	16dd#\	.	16dd#\	.	.	.	.	.	.	.	.	.	.	.	.	.	.	.
8BB-X/Jyy	.	8BB-X/J	.	8A\	.	8a\	-ry	.	16dn\	.	16ddn\yy	.	16ddn\	.	.	.	.	8A\	.	.	.	.	.	.	.	.	.	.
.	.	.	.	.	.	.	.	.	16d\JJ	.	16dd\JJ	.	16dd\JJ	.	.	.	.	.	.	.	.	.	.	.	.	.	.	.
=15	=15	=15	=15	=15	=15	=15	=15	=15	=15	=15	=15	=15	=15	=15	=15	=15	=15	=15	=15	=15	=15	=15	=15	=15	=15	=15	=15	=15
*	*	*	*	*	*	*	*	*	*	*	*	*	*	*	*	*	*	*	*	*^	*	*	*	*	*	*	*	*
8AA/Lyy	.	8AA/L	.	4A\	.	4a/	z pasz-	.	16c#X\LL	.	16cc#X\LLyy	.	16cc#X\LL	.	1ryy	1ryy	.	4A\	.	2r	1rB	.	1ryy	.	1ryy	1ryy	1ryy	1ryy	1ryy
.	.	.	.	.	.	.	.	.	16c#\	.	16cc#\	.	16cc#\	.	.	.	.	.	.	.	.	.	.	.	.	.	.	.	.
8C#X/yy	.	8C#X/	.	.	.	.	.	.	16e\	.	16ee\yy	.	16ee\	.	.	.	.	.	.	.	.	.	.	.	.	.	.	.	.
.	.	.	.	.	.	.	.	.	16e\	.	16ee\	.	16ee\	.	.	.	.	.	.	.	.	.	.	.	.	.	.	.	.
8BBn/yy	.	8BBn/	.	8A\	.	8a/	-czą	.	16d\	.	16dd\yy	.	16dd\	.	.	.	.	8A\L	.	.	.	.	.	.	.	.	.	.	.
.	.	.	.	.	.	.	.	.	16d\	.	16dd\	.	16dd\	.	.	.	.	.	.	.	.	.	.	.	.	.	.	.	.
8E/Jyy	.	8E/J	.	8A\	.	8a/	o-	.	16f\	.	16ff\yy	.	16ff\	.	.	.	.	8A\J	.	.	.	.	.	.	.	.	.	.	.
.	.	.	.	.	.	.	.	.	16f\JJ	.	16ff\JJ	.	16ff\JJ	.	.	.	.	.	.	.	.	.	.	.	.	.	.	.	.
!	!	!	!	!	!	!	!	!	!	!	!	!	!	!	!	!	!	!	!	!LO:TX:a:t=1mo	!	!	!	!	!	!	!	!	!
8C#\Lyy	.	8C#\L	.	4.A\	.	4.a/	-twar-	.	16e\LL	.	16ee\LLyy	.	16ee\LL	.	.	.	.	4A\	.	4a/	.	.	.	.	.	.	.	.	.
.	.	.	.	.	.	.	.	.	16e\	.	16ee\	.	16ee\	.	.	.	.	.	.	.	.	.	.	.	.	.	.	.	.
8E\yy	.	8E\	.	.	.	.	.	.	16g\	.	16gg\yy	.	16gg\	.	.	.	.	.	.	.	.	.	.	.	.	.	.	.	.
.	.	.	.	.	.	.	.	.	16g\	.	16gg\	.	16gg\	.	.	.	.	.	.	.	.	.	.	.	.	.	.	.	.
8D\yy	.	8D\	.	.	.	.	.	.	16f\	.	16ff\yy	.	16ff\	.	.	.	.	8A\L	.	8a/L	.	.	.	.	.	.	.	.	.
.	.	.	.	.	.	.	.	.	16f\	.	16ff\	.	16ff\	.	.	.	.	.	.	.	.	.	.	.	.	.	.	.	.
8F\Jyy	.	8F\J	.	8A\	.	8a/	-tą	.	16a\	.	16aa\yy	.	16aa\	.	.	.	.	8A\J	.	8a/J	.	.	.	.	.	.	.	.	.
.	.	.	.	.	.	.	.	.	16a\JJ	.	16aa\JJ	.	16aa\JJ	.	.	.	.	.	.	.	.	.	.	.	.	.	.	.	.
*	*	*	*	*	*	*	*	*	*	*	*	*	*	*	*	*	*	*	*	*v	*v	*	*	*	*	*	*	*	*
!!LO:PB:g=original
=16	=16	=16	=16	=16	=16	=16	=16	=16	=16	=16	=16	=16	=16	=16	=16	=16	=16	=16	=16	=16	=16	=16	=16	=16	=16	=16	=16	=16
*	*	*	*	*	*	*	*	*	*	*	*	*	*	*	*	*	*	*	*	*	*	*	*	*tremolo	*tremolo	*tremolo	*tremolo	*tremolo
8E\L	.	8E\L	.	8B- 8G\	.	8ee 8cc#X\	Pa-	.	16g\LL	.	16gg\LLyy	.	16gg\LL	.	1ryy	2.G\	.	2.c#X 2.B-\	.	2.ee\	.	1ryy	.	8GG/L	8g/L	8b-\L	8cc#X\L	8eee\L
.	.	.	.	.	.	.	.	.	16g\	.	16gg\	.	16gg\	.	.	.	.	.	.	.	.	.	.	.	.	.	.	.
8G\	.	8G\	.	8B- 8G\	.	8ee 8cc#\	-trzy	.	16b-\	.	16bb-\yy	.	16bb-\	.	.	.	.	.	.	.	.	.	.	8GG/	8g/	8b-\	8cc#\	8eee\
.	.	.	.	.	.	.	.	.	16b-\	.	16bb-\	.	16bb-\	.	.	.	.	.	.	.	.	.	.	.	.	.	.	.
8B-\	.	8B-\	.	8B- 8G\	.	8ee 8cc#\	na	.	16cc#X\	.	16ccc#X\yy	.	16ccc#X\	.	.	.	.	.	.	.	.	.	.	8GG/	8g/	8b-\	8cc#\	8eee\
.	.	.	.	.	.	.	.	.	16cc#\	.	16ccc#\	.	16ccc#\	.	.	.	.	.	.	.	.	.	.	.	.	.	.	.
8c#X\J	.	8c#X\J	.	8B- 8G\	.	8ee 8cc#\	ry-	.	16ee\	.	16eee\yy	.	16eee\	.	.	.	.	.	.	.	.	.	.	8GG/J	8g/J	8b-\J	8cc#\J	8eee\J
.	.	.	.	.	.	.	.	.	16ee\JJ	.	16eee\JJ	.	16eee\JJ	.	.	.	.	.	.	.	.	.	.	.	.	.	.	.
*	*	*	*	*	*	*	*	*	*	*	*	*	*	*	*	*	*	*	*	*	*	*	*	*Xtremolo	*Xtremolo	*Xtremolo	*Xtremolo	*Xtremolo
8e\L	.	8e\L	.	4B- 4G\	.	4ee 4cc#\	-ce-	.	16gg\LL	.	16ggg\LLyy	.	16ggg\LL	.	.	.	.	.	.	.	.	.	.	4GG/	4g/	4b-\	4cc#\	4eee\
.	.	.	.	.	.	.	.	.	16gg\	.	16ggg\	.	16ggg\	.	.	.	.	.	.	.	.	.	.	.	.	.	.	.
8c#\	.	8c#\	.	.	.	.	.	.	16ee\	.	16eee\yy	.	16eee\	.	.	.	.	.	.	.	.	.	.	.	.	.	.	.
.	.	.	.	.	.	.	.	.	16ee\	.	16eee\	.	16eee\	.	.	.	.	.	.	.	.	.	.	.	.	.	.	.
8A\	.	8A\	.	8A\	.	8a\	-rza	.	16cc#\	.	16ccc#\yy	.	16ccc#\	.	.	8A\	.	8A\	.	8a/	.	.	.	8AA/	8a/	8a\	8a\	8aa\
.	.	.	.	.	.	.	.	.	16cc#\	.	16ccc#\	.	16ccc#\	.	.	.	.	.	.	.	.	.	.	.	.	.	.	.
8F\J	.	8F\J	.	8r	.	8r	.	.	16a\	.	16aa\yy	.	16aa\	.	.	8r	.	8r	.	8r	.	.	.	8r	8r	8r	8r	8r
.	.	.	.	.	.	.	.	.	16a\JJ	.	16aa\JJ	.	16aa\JJ	.	.	.	.	.	.	.	.	.	.	.	.	.	.	.
=17	=17	=17	=17	=17	=17	=17	=17	=17	=17	=17	=17	=17	=17	=17	=17	=17	=17	=17	=17	=17	=17	=17	=17	=17	=17	=17	=17	=17
8G\L	.	8G\L	.	4G\	.	4b-\	W gó-	.	16b-\LL	.	16bb-\LLyy	.	16bb-\LL	.	1ryy	1ryy	.	4B- 4G\	.	1ryy	.	1ryy	.	2r	2r	2r	2r	2r
.	.	.	.	.	.	.	.	.	16b-\	.	16bb-\	.	16bb-\	.	.	.	.	.	.	.	.	.	.	.	.	.	.	.
8F\	.	8F\	.	.	.	.	.	.	16a\	.	16aa\yy	.	16aa\	.	.	.	.	.	.	.	.	.	.	.	.	.	.	.
.	.	.	.	.	.	.	.	.	16a\	.	16aa\	.	16aa\	.	.	.	.	.	.	.	.	.	.	.	.	.	.	.
8E\	.	8E\	.	8G\	.	8b-\	-ry	.	16g\	.	16gg\yy	.	16gg\	.	.	.	.	8B-L 8G\	.	.	.	.	.	.	.	.	.	.
.	.	.	.	.	.	.	.	.	16g\	.	16gg\	.	16gg\	.	.	.	.	.	.	.	.	.	.	.	.	.	.	.
8D\J	.	8D\J	.	8G\	.	8b-\	on	.	16f\	.	16ff\yy	.	16ff\	.	.	.	.	8B-J 8G\	.	.	.	.	.	.	.	.	.	.
.	.	.	.	.	.	.	.	.	16f\JJ	.	16ff\JJ	.	16ff\JJ	.	.	.	.	.	.	.	.	.	.	.	.	.	.	.
8E\L	.	8E\L	.	4A\	.	4a\	pa-	.	16g\LL	.	16gg\LLyy	.	16gg\LL	.	.	.	.	4A\	.	.	.	.	.	2AA/	2a\	2a\	4cc#X\	4eee\
.	.	.	.	.	.	.	.	.	16g\	.	16gg\	.	16gg\	.	.	.	.	.	.	.	.	.	.	.	.	.	.	.
8D\	.	8D\	.	.	.	.	.	.	16f\	.	16ff\yy	.	16ff\	.	.	.	.	.	.	.	.	.	.	.	.	.	.	.
.	.	.	.	.	.	.	.	.	16f\	.	16ff\	.	16ff\	.	.	.	.	.	.	.	.	.	.	.	.	.	.	.
8C#X\	.	8C#X\	.	8A\	.	8a\	-trzy	.	16e\	.	16ee\yy	.	16ee\	.	.	.	.	8A\L	.	.	.	.	.	.	.	.	4ee\	4aa\
.	.	.	.	.	.	.	.	.	16e\	.	16ee\	.	16ee\	.	.	.	.	.	.	.	.	.	.	.	.	.	.	.
8BBn\J	.	8BBn\J	.	8A\	.	8a\	nie	.	16d\	.	16dd\yy	.	16dd\	.	.	.	.	8A\J	.	.	.	.	.	.	.	.	.	.
.	.	.	.	.	.	.	.	.	16d\JJ	.	16dd\JJ	.	16dd\JJ	.	.	.	.	.	.	.	.	.	.	.	.	.	.	.
=18	=18	=18	=18	=18	=18	=18	=18	=18	=18	=18	=18	=18	=18	=18	=18	=18	=18	=18	=18	=18	=18	=18	=18	=18	=18	=18	=18	=18
8C#X\L	.	8C#X\L	.	4G\	.	4b-\	wi-	.	16e\LL	.	16ee\LLyy	.	16ee\LL	.	1ryy	1ryy	.	4B- 4G\	.	1ryy	.	1ryy	.	2r	2r	2r	2r	2r
.	.	.	.	.	.	.	.	.	16e\	.	16ee\	.	16ee\	.	.	.	.	.	.	.	.	.	.	.	.	.	.	.
8D\	.	8D\	.	.	.	.	.	.	16f\	.	16ff\yy	.	16ff\	.	.	.	.	.	.	.	.	.	.	.	.	.	.	.
.	.	.	.	.	.	.	.	.	16f\	.	16ff\	.	16ff\	.	.	.	.	.	.	.	.	.	.	.	.	.	.	.
8E\	.	8E\	.	8G\	.	8b-\	-dzi	.	16g\	.	16gg\yy	.	16gg\	.	.	.	.	8B-L 8G\	.	.	.	.	.	.	.	.	.	.
.	.	.	.	.	.	.	.	.	16g\	.	16gg\	.	16gg\	.	.	.	.	.	.	.	.	.	.	.	.	.	.	.
8D\J	.	8D\J	.	8G\	.	8b-\	po-	.	16f\	.	16ff\yy	.	16ff\	.	.	.	.	8B-J 8G\	.	.	.	.	.	.	.	.	.	.
.	.	.	.	.	.	.	.	.	16f\JJ	.	16ff\JJ	.	16ff\JJ	.	.	.	.	.	.	.	.	.	.	.	.	.	.	.
8C#\L	.	8C#\L	.	4.A\	.	4.a\	-czwa-	.	16e\LL	.	16ee\LLyy	.	16ee\LL	.	.	.	.	4.A\	.	.	.	.	.	2AA/	2a\	2a\	4cc#X\	4eee\
.	.	.	.	.	.	.	.	.	16e\	.	16ee\	.	16ee\	.	.	.	.	.	.	.	.	.	.	.	.	.	.	.
8AA\	.	8AA\	.	.	.	.	.	.	16c#X\	.	16cc#X\yy	.	16cc#X\	.	.	.	.	.	.	.	.	.	.	.	.	.	.	.
.	.	.	.	.	.	.	.	.	16c#\	.	16cc#\	.	16cc#\	.	.	.	.	.	.	.	.	.	.	.	.	.	.	.
8BBn\	.	8BBn\	.	.	.	.	.	.	16d\	.	16dd\yy	.	16dd\	.	.	.	.	.	.	.	.	.	.	.	.	.	4ee\	4aa\
.	.	.	.	.	.	.	.	.	16d\	.	16dd\	.	16dd\	.	.	.	.	.	.	.	.	.	.	.	.	.	.	.
8C#\J	.	8C#\J	.	8A\	.	8a\	-ry	.	16e\	.	16ee\yy	.	16ee\	.	.	.	.	8A\	.	.	.	.	.	.	.	.	.	.
.	.	.	.	.	.	.	.	.	16e\JJ	.	16ee\JJ	.	16ee\JJ	.	.	.	.	.	.	.	.	.	.	.	.	.	.	.
=19	=19	=19	=19	=19	=19	=19	=19	=19	=19	=19	=19	=19	=19	=19	=19	=19	=19	=19	=19	=19	=19	=19	=19	=19	=19	=19	=19	=19
8D\L	.	8D\L	.	4A\	.	4a/	w gó-	.	16f\LL	.	16ff\LLyy	.	16ff\LL	.	1ryy	1ryy	.	4A\	.	1ryy	.	1ryy	.	1ryy	1ryy	1ryy	1ryy	1ryy
.	.	.	.	.	.	.	.	.	16f\	.	16ff\	.	16ff\	.	.	.	.	.	.	.	.	.	.	.	.	.	.	.
8F\	.	8F\	.	.	.	.	.	.	16a\	.	16aa\yy	.	16aa\	.	.	.	.	.	.	.	.	.	.	.	.	.	.	.
.	.	.	.	.	.	.	.	.	16a\	.	16aa\	.	16aa\	.	.	.	.	.	.	.	.	.	.	.	.	.	.	.
8E\	.	8E\	.	8A\	.	8a/	-ry	.	16g#X\	.	16gg#X\yy	.	16gg#X\	.	.	.	.	8A\L	.	.	.	.	.	.	.	.	.	.
.	.	.	.	.	.	.	.	.	16g#\	.	16gg#\	.	16gg#\	.	.	.	.	.	.	.	.	.	.	.	.	.	.	.
8F\J	.	8F\J	.	8A\	.	8a/	on	.	16a\	.	16aa\yy	.	16aa\	.	.	.	.	8A\J	.	.	.	.	.	.	.	.	.	.
.	.	.	.	.	.	.	.	.	16a\JJ	.	16aa\JJ	.	16aa\JJ	.	.	.	.	.	.	.	.	.	.	.	.	.	.	.
8E\L	.	8E\L	.	4A\	.	4a/	pa-	.	16gn\LL	.	16ggn\LLyy	.	16ggn\LL	.	.	.	.	4A\	.	.	.	.	.	.	.	.	.	.
.	.	.	.	.	.	.	.	.	16g\	.	16gg\	.	16gg\	.	.	.	.	.	.	.	.	.	.	.	.	.	.	.
!	!	!	!	!	!	!	!	!	!LO:TX:a:t=P:problem=w źróðle dźwięk a zapisany dwukrotnie	!	!	!	!	!	!	!	!	!	!	!	!	!	!	!	!	!	!	!
8G\	.	8G\	.	.	.	.	.	.	16a\	.	16aa\yy	.	16aa\	.	.	.	.	.	.	.	.	.	.	.	.	.	.	.
.	.	.	.	.	.	.	.	.	16a\	.	16aa\	.	16aa\	.	.	.	.	.	.	.	.	.	.	.	.	.	.	.
!	!	!	!	!	!	!	!	!	!	!	!	!	!LO:TX:a:t=P:problem=w źródle dźwięk aa zapisany dwukrotnie	!	!	!	!	!	!	!	!	!	!	!	!	!	!	!
8F\	.	8F\	.	8A\	.	8a/	-trzy	.	16a\	.	16aa\yy	.	16aa\	.	.	.	.	8A\L	.	.	.	.	.	.	.	.	.	.
.	.	.	.	.	.	.	.	.	16a\	.	16aa\	.	16aa\	.	.	.	.	.	.	.	.	.	.	.	.	.	.	.
8D\J	.	8D\J	.	8A\	.	8a/	i	.	16f\	.	16ff\yy	.	16ff\	.	.	.	.	8A\J	.	.	.	.	.	.	.	.	.	.
.	.	.	.	.	.	.	.	.	16f\JJ	.	16ff\JJ	.	16ff\JJ	.	.	.	.	.	.	.	.	.	.	.	.	.	.	.
!!LO:PB:g=original
=20	=20	=20	=20	=20	=20	=20	=20	=20	=20	=20	=20	=20	=20	=20	=20	=20	=20	=20	=20	=20	=20	=20	=20	=20	=20	=20	=20	=20
*tremolo	*	*	*	*	*	*	*	*	*	*	*	*	*	*	*	*	*	*	*	*	*	*	*	*	*	*	*	*
8C/L	.	8C\L	.	2c\	.	2cc\	bie-	.	16e\LL	.	16ee\LLyy	.	16ee\LL	.	1ryy	1ryy	.	2c\	.	1ryy	.	1ryy	.	1ryy	1ryy	1ryy	1ryy	1ryy
.	.	.	.	.	.	.	.	.	16e\	.	16ee\	.	16ee\	.	.	.	.	.	.	.	.	.	.	.	.	.	.	.
8C/	.	8D\	.	.	.	.	.	.	16f\	.	16ff\yy	.	16ff\	.	.	.	.	.	.	.	.	.	.	.	.	.	.	.
.	.	.	.	.	.	.	.	.	16f\	.	16ff\	.	16ff\	.	.	.	.	.	.	.	.	.	.	.	.	.	.	.
8C/	.	8E\	.	.	.	.	.	.	16g\	.	16gg\yy	.	16gg\	.	.	.	.	.	.	.	.	.	.	.	.	.	.	.
.	.	.	.	.	.	.	.	.	16g\	.	16gg\	.	16gg\	.	.	.	.	.	.	.	.	.	.	.	.	.	.	.
8C/J	.	8F\J	.	.	.	.	.	.	16a\	.	16aa\yy	.	16aa\	.	.	.	.	.	.	.	.	.	.	.	.	.	.	.
.	.	.	.	.	.	.	.	.	16a\JJ	.	16aa\JJ	.	16aa\JJ	.	.	.	.	.	.	.	.	.	.	.	.	.	.	.
8C/L	.	8G\L	.	4C/	.	4c/	-ży	.	16b-X\LL	.	16bb-\LLyy	.	16bb-\LL	.	.	.	.	4C/	.	.	.	.	.	.	.	.	.	.
.	.	.	.	.	.	.	.	.	16b-\	.	16bb-\	.	16bb-\	.	.	.	.	.	.	.	.	.	.	.	.	.	.	.
8C/	.	8A\	.	.	.	.	.	.	16cc\	.	16ccc\yy	.	16ccc\	.	.	.	.	.	.	.	.	.	.	.	.	.	.	.
.	.	.	.	.	.	.	.	.	16cc\	.	16ccc\	.	16ccc\	.	.	.	.	.	.	.	.	.	.	.	.	.	.	.
8C/	.	8B-\	.	4r	.	4r	.	.	16dd\	.	16ddd\yy	.	16ddd\	.	.	.	.	4r	.	.	.	.	.	.	.	.	.	.
.	.	.	.	.	.	.	.	.	16dd\	.	16ddd\	.	16ddd\	.	.	.	.	.	.	.	.	.	.	.	.	.	.	.
8C/J	.	8G\J	.	.	.	.	.	.	16b-\	.	16eee\yy	.	16eee\	.	.	.	.	.	.	.	.	.	.	.	.	.	.	.
.	.	.	.	.	.	.	.	.	16b-\JJ	.	16eee\JJ	.	16eee\JJ	.	.	.	.	.	.	.	.	.	.	.	.	.	.	.
*Xtremolo	*	*	*	*	*	*	*	*	*	*	*	*	*	*	*	*	*	*	*	*	*	*	*	*	*	*	*	*
=21	=21	=21	=21	=21	=21	=21	=21	=21	=21	=21	=21	=21	=21	=21	=21	=21	=21	=21	=21	=21	=21	=21	=21	=21	=21	=21	=21	=21
*	*	*	*	*	*	*	*	*	*	*	*	*	*	*	*	*	*	*	*	*^	*	*	*	*	*	*	*	*
4FF/	.	4F\	.	4F\	.	4f/	O-	.	4a\	.	4fff\yy	.	4fff\	.	1ryy	4F\	.	4F\	.	4f/	2ryy	.	1ryy	.	1ryy	1ryy	1ryy	1ryy	1ryy
4r	.	4r	.	8.c 8.F\	.	8.ff 8.a\	-to	.	4r	.	4ryy	.	4r	.	.	8.F\L	.	8.cL 8.F\	.	8.ffL 8.a\	.	.	.	.	.	.	.	.	.
.	.	.	.	16A 16F\	.	16ff 16cc\	już	.	.	.	.	.	.	.	.	16F\Jk	.	16AJk 16F\	.	16ffJk 16cc\	.	.	.	.	.	.	.	.	.
2r	.	2r	.	4.A 4.F\	.	4.ff 4.cc\	wdarł	.	2r	.	2ryy	.	2r	.	.	4.F\	.	4.A 4.F\	.	4.ff 4.cc\	4ryy	.	.	.	.	.	.	.	.
.	.	.	.	.	.	.	.	.	.	.	.	.	.	.	.	.	.	.	.	.	8ryy	.	.	.	.	.	.	.	.
.	.	.	.	8B-\	.	8dd\	się	.	.	.	.	.	.	.	.	8B-\	.	8B-\	.	8dd/	8dd\	.	.	.	.	.	.	.	.
*	*	*	*	*	*	*	*	*	*	*	*	*	*	*	*	*	*	*	*	*v	*v	*	*	*	*	*	*	*	*
=22	=22	=22	=22	=22	=22	=22	=22	=22	=22	=22	=22	=22	=22	=22	=22	=22	=22	=22	=22	=22	=22	=22	=22	=22	=22	=22	=22	=22
!	!	!	!	!	!	!	!	!	!	!	!	!	!	!	!	!	!	!LO:TX:a:t=à duè	!	!	!	!	!	!	!	!	!	!
1ryy	.	1ryy	.	8.A\	.	8.cc\	za	.	1ryy	.	1ryy	.	1ryy	.	1ryy	8.A\L	.	8.A\L	.	8.cc/L	.	2r	.	1ryy	1ryy	1ryy	1ryy	1ryy
.	.	.	.	16G\	.	16b-\	nim	.	.	.	.	.	.	.	.	16G\Jk	.	16G\Jk	.	16b-/Jk	.	.	.	.	.	.	.	.
.	.	.	.	8.F\	.	8.a\	psy	.	.	.	.	.	.	.	.	8.F\L	.	8.F\L	.	8.a/L	.	.	.	.	.	.	.	.
.	.	.	.	16E 16C\	.	16g/	i	.	.	.	.	.	.	.	.	16C\Jk	.	16C\Jk	.	16g/Jk	.	.	.	.	.	.	.	.
.	.	.	.	4F\	.	4f/	słu-	.	.	.	.	.	.	.	.	4F\	.	4F\	.	4f/	.	8.r	.	.	.	.	.	.
!	!	!	!	!	!	!	!	!	!	!	!	!	!	!	!	!	!	!	!	!	!	!LO:N:vis=8	!	!	!	!	!	!
.	.	.	.	.	.	.	.	.	.	.	.	.	.	.	.	.	.	.	.	.	.	16cc 16c\	.	.	.	.	.	.
.	.	.	.	8F\	.	8f/	-gi	.	.	.	.	.	.	.	.	8F\	.	8F\	.	8f/	.	8.aL 8.A\	.	.	.	.	.	.
.	.	.	.	8r	.	8r	.	.	.	.	.	.	.	.	.	8r	.	8r	.	8r	.	.	.	.	.	.	.	.
.	.	.	.	.	.	.	.	.	.	.	.	.	.	.	.	.	.	.	.	.	.	16fJk 16F\	.	.	.	.	.	.
=23	=23	=23	=23	=23	=23	=23	=23	=23	=23	=23	=23	=23	=23	=23	=23	=23	=23	=23	=23	=23	=23	=23	=23	=23	=23	=23	=23	=23
!	!	!	!	!	!	!	!	!	!	!	!	!	!	!	!	!	!	!	!	!	!	!LO:N:vis=1	!	!	!	!	!	!
1ryy	.	1ryy	.	4E 4C\	.	4g/	I	.	1ryy	.	1ryy	.	1ryy	.	1ryy	4C\	.	4E\	.	4g/	.	2rb	.	1ryy	1ryy	1ryy	1ryy	1ryy
.	.	.	.	8.G 8.C\	.	8.cc 8.e\	so-	.	.	.	.	.	.	.	.	8.C\L	.	8.G\L	.	8.ccL 8.e/	.	.	.	.	.	.	.	.
.	.	.	.	16E 16C\	.	16g/	-kół	.	.	.	.	.	.	.	.	16C\Jk	.	16E\Jk	.	16g/Jk	.	.	.	.	.	.	.	.
.	.	.	.	4.F\	.	4.a/	le-	.	.	.	.	.	.	.	.	4.F\	.	4.F\	.	4.a/	.	8.r	.	.	.	.	.	.
!	!	!	!	!	!	!	!	!	!	!	!	!	!	!	!	!	!	!	!	!	!	!LO:TX:a:t=á dué	!	!	!	!	!	!
.	.	.	.	.	.	.	.	.	.	.	.	.	.	.	.	.	.	.	.	.	.	16c\	.	.	.	.	.	.
.	.	.	.	.	.	.	.	.	.	.	.	.	.	.	.	.	.	.	.	.	.	8.f\L	.	.	.	.	.	.
.	.	.	.	8E 8C\	.	8g/	-ci	.	.	.	.	.	.	.	.	8C\	.	8E\	.	8g/	.	.	.	.	.	.	.	.
.	.	.	.	.	.	.	.	.	.	.	.	.	.	.	.	.	.	.	.	.	.	16g\Jk	.	.	.	.	.	.
!!LO:PB:g=original
=24	=24	=24	=24	=24	=24	=24	=24	=24	=24	=24	=24	=24	=24	=24	=24	=24	=24	=24	=24	=24	=24	=24	=24	=24	=24	=24	=24	=24
1ryy	.	1ryy	.	8.F 8.AA\	.	8.f/	i	.	1ryy	.	1ryy	.	1ryy	.	1ryy	8.AA\L	.	8.F\L	.	8.f/L	.	8f\	.	1ryy	1ryy	1ryy	1ryy	1ryy
.	.	.	.	.	.	.	.	.	.	.	.	.	.	.	.	.	.	.	.	.	.	8r	.	.	.	.	.	.
.	.	.	.	16E 16C\	.	16g 16e/	trzy	.	.	.	.	.	.	.	.	16C\Jk	.	16E\Jk	.	16gJk 16e/	.	.	.	.	.	.	.	.
.	.	.	.	8.F\	.	8.a 8.f/	gwiaz-	.	.	.	.	.	.	.	.	8.F\L	.	8.F\L	.	8.aL 8.f/	.	4r	.	.	.	.	.	.
.	.	.	.	16D\	.	16b- 16g/	-dy	.	.	.	.	.	.	.	.	16F\Jk	.	16F\Jk	.	16b-/Jk	.	.	.	.	.	.	.	.
.	.	.	.	4F\	.	4dd 4b-\	świe-	.	.	.	.	.	.	.	.	4F\	.	4F\	.	4dd 4b-/	.	2r	.	.	.	.	.	.
.	.	.	.	8F\	.	8dd 8a\	-cą	.	.	.	.	.	.	.	.	8F\	.	8F\	.	8cc 8a/	.	.	.	.	.	.	.	.
.	.	.	.	8r	.	8r	.	.	.	.	.	.	.	.	.	8r	.	8r	.	8r	.	.	.	.	.	.	.	.
=25	=25	=25	=25	=25	=25	=25	=25	=25	=25	=25	=25	=25	=25	=25	=25	=25	=25	=25	=25	=25	=25	=25	=25	=25	=25	=25	=25	=25
1ryy	.	1ryy	.	4G 4C\	.	4ee 4b-\	I	.	1ryy	.	1ryy	.	1ryy	.	1ryy	4C\	.	4G\	.	4ee 4b-/	.	1ryy	.	1ryy	1ryy	1ryy	1ryy	1ryy
.	.	.	.	8.G 8.C\	.	8.ee 8.b-\	or-	.	.	.	.	.	.	.	.	8.C\L	.	8.G\L	.	8.eeL 8.b-/	.	.	.	.	.	.	.	.
.	.	.	.	16G 16C\	.	16ee 16b-\	-szak	.	.	.	.	.	.	.	.	16C\Jk	.	16G\Jk	.	16eeJk 16b-/	.	.	.	.	.	.	.	.
.	.	.	.	4.A 4.F\	.	4.ff 4.a\	cie-	.	.	.	.	.	.	.	.	4.F\	.	4.A 4.F\	.	4.ff 4.a/	.	.	.	.	.	.	.	.
.	.	.	.	8B-\	.	8dd\	-niów	.	.	.	.	.	.	.	.	8B-\	.	8B-\	.	8dd/	.	.	.	.	.	.	.	.
=26	=26	=26	=26	=26	=26	=26	=26	=26	=26	=26	=26	=26	=26	=26	=26	=26	=26	=26	=26	=26	=26	=26	=26	=26	=26	=26	=26	=26
1ryy	.	1ryy	.	8.A\	.	8.cc\	wle-	.	1ryy	.	1ryy	.	1ryy	.	1ryy	8.A\L	.	8.A\L	.	8.cc/L	.	1ryy	.	1ryy	1ryy	1ryy	1ryy	1ryy
.	.	.	.	16G\	.	16b-\	-cze	.	.	.	.	.	.	.	.	16G\Jk	.	16G\Jk	.	16b-/Jk	.	.	.	.	.	.	.	.
.	.	.	.	8.F\	.	8.a\	się	.	.	.	.	.	.	.	.	8.F\L	.	8.F\L	.	8.a/L	.	.	.	.	.	.	.	.
.	.	.	.	16G\	.	16b-\	znim	.	.	.	.	.	.	.	.	16G\Jk	.	16G\Jk	.	16b-/Jk	.	.	.	.	.	.	.	.
.	.	.	.	4A\	.	4cc\	dłu-	.	.	.	.	.	.	.	.	4A\	.	4A\	.	4cc/	.	.	.	.	.	.	.	.
.	.	.	.	4G\	.	4cc#X 4a\	-gi	.	.	.	.	.	.	.	.	4G\	.	4G\	.	4cc#X 4a/	.	.	.	.	.	.	.	.
=27	=27	=27	=27	=27	=27	=27	=27	=27	=27	=27	=27	=27	=27	=27	=27	=27	=27	=27	=27	=27	=27	=27	=27	=27	=27	=27	=27	=27
1ryy	.	1ryy	.	8.F\	.	8.dd 8.a\	Wszy-	.	1ryy	.	1ryy	.	1ryy	.	1ryy	8.F\L	.	8.F\L	.	8.ddL 8.a/	.	1ryy	.	1ryy	1ryy	1ryy	1ryy	1ryy
.	.	.	.	16F\	.	16dd 16a\	-scy	.	.	.	.	.	.	.	.	16F\Jk	.	16F\Jk	.	16ddJk 16a/	.	.	.	.	.	.	.	.
.	.	.	.	8.G\	.	8.dd 8.b-\	za	.	.	.	.	.	.	.	.	8.G\L	.	8.G\L	.	8.ddL 8.b-/	.	.	.	.	.	.	.	.
.	.	.	.	16G\	.	16dd 16b-\	nim	.	.	.	.	.	.	.	.	16G\Jk	.	16G\Jk	.	16ddJk 16b-/	.	.	.	.	.	.	.	.
.	.	.	.	4A\	.	4ff 4dd\	na	.	.	.	.	.	.	.	.	4A\	.	4A\	.	4ff 4dd\	.	.	.	.	.	.	.	.
.	.	.	.	4A 4AA\	.	4ee 4cc#X\	wschód	.	.	.	.	.	.	.	.	4AA/	.	4A 4AA\	.	4ee 4cc#X\	.	.	.	.	.	.	.	.
!!LO:PB:g=original
=28	=28	=28	=28	=28	=28	=28	=28	=28	=28	=28	=28	=28	=28	=28	=28	=28	=28	=28	=28	=28	=28	=28	=28	=28	=28	=28	=28	=28
*	*	*	*	*^	*	*^	*	*	*	*	*	*	*	*	*	*	*	*	*	*^	*	*	*	*	*	*	*	*
*tremolo	*	*	*	*	*	*	*	*	*	*	*	*	*	*	*	*	*	*	*	*	*	*	*	*	*	*	*	*	*	*	*
!	!	!	!	!LO:TX:t=P:problem=nuty dwóch głosów  nałożone na siebie	!	!	!LO:TX:t=P:problem=nuty dwóch głosów  nałożone na siebie	!	!	!	!	!	!	!	!	!	!	!	!	!	!	!LO:TX:t=P:problem=nuty dwóch głosów  nałożone na siebie	!	!	!	!	!	!	!	!	!
8D\L	.	8D\L	.	[>1D	[<1D	.	[>1dd	[<1dd	le-	.	16D/LL	.	16d/LLyy	.	16d/LL	.	1ryy	[>1D	.	[>1d [<1D	.	[1dd	[1dd	.	[>1dd [<1d	.	[>1D	[>1a	[>1a	[>1dd	[>1ddd
.	.	.	.	.	.	.	.	.	.	.	16D/	.	16d/	.	16d/	.	.	.	.	.	.	.	.	.	.	.	.	.	.	.	.
8D\	.	8E\	.	.	.	.	.	.	.	.	16E/	.	16e/yy	.	16e/	.	.	.	.	.	.	.	.	.	.	.	.	.	.	.	.
.	.	.	.	.	.	.	.	.	.	.	16E/	.	16e/	.	16e/	.	.	.	.	.	.	.	.	.	.	.	.	.	.	.	.
8D\	.	8F\	.	.	.	.	.	.	.	.	16F/	.	16f/yy	.	16f/	.	.	.	.	.	.	.	.	.	.	.	.	.	.	.	.
.	.	.	.	.	.	.	.	.	.	.	16F/	.	16f/	.	16f/	.	.	.	.	.	.	.	.	.	.	.	.	.	.	.	.
8D\J	.	8F#X\J	.	.	.	.	.	.	.	.	16F#X/	.	16f#X/yy	.	16f#X/	.	.	.	.	.	.	.	.	.	.	.	.	.	.	.	.
.	.	.	.	.	.	.	.	.	.	.	16F#/JJ	.	16f#/JJ	.	16f#/JJ	.	.	.	.	.	.	.	.	.	.	.	.	.	.	.	.
*Xtremolo	*	*	*	*	*	*	*	*	*	*	*	*	*	*	*	*	*	*	*	*	*	*	*	*	*	*	*	*	*	*	*
8EE/L	.	8G\L	.	.	.	.	.	.	.	.	16G\LL	.	16g\LLyy	.	16g\LL	.	.	.	.	.	.	.	.	.	.	.	.	.	.	.	.
.	.	.	.	.	.	.	.	.	.	.	16G\	.	16g\	.	16g\	.	.	.	.	.	.	.	.	.	.	.	.	.	.	.	.
8FF#X/	.	8A\	.	.	.	.	.	.	.	.	16A\	.	16a\yy	.	16a\	.	.	.	.	.	.	.	.	.	.	.	.	.	.	.	.
.	.	.	.	.	.	.	.	.	.	.	16A\	.	16a\	.	16a\	.	.	.	.	.	.	.	.	.	.	.	.	.	.	.	.
8GG/	.	8Bn\	.	.	.	.	.	.	.	.	16Bn\	.	16bn\yy	.	16bn\	.	.	.	.	.	.	.	.	.	.	.	.	.	.	.	.
.	.	.	.	.	.	.	.	.	.	.	16B\	.	16b\	.	16b\	.	.	.	.	.	.	.	.	.	.	.	.	.	.	.	.
8AA/J	.	8c#X\J	.	.	.	.	.	.	.	.	16c#X\	.	16cc#X\yy	.	16cc#X\	.	.	.	.	.	.	.	.	.	.	.	.	.	.	.	.
.	.	.	.	.	.	.	.	.	.	.	16c#\JJ	.	16cc#\JJ	.	16cc#\JJ	.	.	.	.	.	.	.	.	.	.	.	.	.	.	.	.
=29	=29	=29	=29	=29	=29	=29	=29	=29	=29	=29	=29	=29	=29	=29	=29	=29	=29	=29	=29	=29	=29	=29	=29	=29	=29	=29	=29	=29	=29	=29	=29
!	!	!	!	!LO:TX:t=P:problem=nuty dwóch głosów  nałożone na siebie	!	!	!LO:TX:t=P:problem=nuty dwóch głosów  nałożone na siebie	!	!	!	!	!	!	!	!	!	!	!	!	!	!	!LO:TX:t=P:problem=nuty dwóch głosów  nałożone na siebie	!	!	!	!	!	!	!	!	!
8BBn\L	.	8Bn\L	.	2.D\]	2.D\]	.	2.dd\]	2.dd\]	.	.	16d\LL	.	16dd\LLyy	.	16dd\LL	.	1ryy	1D]	.	1d] 1D]	.	1dd]	1dd]	.	1dd] 1d]	.	1D]	1a]	1a]	1dd]	1ddd]
.	.	.	.	.	.	.	.	.	.	.	16d\	.	16dd\	.	16dd\	.	.	.	.	.	.	.	.	.	.	.	.	.	.	.	.
8C#X\	.	8c#X\	.	.	.	.	.	.	.	.	16e\	.	16ee\yy	.	16ee\	.	.	.	.	.	.	.	.	.	.	.	.	.	.	.	.
.	.	.	.	.	.	.	.	.	.	.	16e\	.	16ee\	.	16ee\	.	.	.	.	.	.	.	.	.	.	.	.	.	.	.	.
8D\	.	8d\	.	.	.	.	.	.	.	.	16f\	.	16ff\yy	.	16ff\	.	.	.	.	.	.	.	.	.	.	.	.	.	.	.	.
.	.	.	.	.	.	.	.	.	.	.	16f\	.	16ff\	.	16ff\	.	.	.	.	.	.	.	.	.	.	.	.	.	.	.	.
8E\J	.	8e\J	.	.	.	.	.	.	.	.	16c#X\	.	16cc#X\yy	.	16cc#X\	.	.	.	.	.	.	.	.	.	.	.	.	.	.	.	.
.	.	.	.	.	.	.	.	.	.	.	16c#\JJ	.	16cc#\JJ	.	16cc#\JJ	.	.	.	.	.	.	.	.	.	.	.	.	.	.	.	.
8F\L	.	8f\L	.	.	.	.	.	.	.	.	16d\LL	.	16dd\LLyy	.	16dd\LL	.	.	.	.	.	.	.	.	.	.	.	.	.	.	.	.
.	.	.	.	.	.	.	.	.	.	.	16d\	.	16dd\	.	16dd\	.	.	.	.	.	.	.	.	.	.	.	.	.	.	.	.
8F#X\	.	8f#X\	.	.	.	.	.	.	.	.	16A\	.	16a\yy	.	16a\	.	.	.	.	.	.	.	.	.	.	.	.	.	.	.	.
.	.	.	.	.	.	.	.	.	.	.	16A\	.	16a\	.	16a\	.	.	.	.	.	.	.	.	.	.	.	.	.	.	.	.
8G\	.	8g\	.	4d\	4ryy	.	4dd\	4ryy	-cą	.	16B-\	.	16b-\yy	.	16b-\	.	.	.	.	.	.	.	.	.	.	.	.	.	.	.	.
.	.	.	.	.	.	.	.	.	.	.	16B-\	.	16b-\	.	16b-\	.	.	.	.	.	.	.	.	.	.	.	.	.	.	.	.
8Fn\J	.	8fn\J	.	.	.	.	.	.	.	.	16A\	.	16a\yy	.	16a\	.	.	.	.	.	.	.	.	.	.	.	.	.	.	.	.
.	.	.	.	.	.	.	.	.	.	.	16A\JJ	.	16a\JJ	.	16a\JJ	.	.	.	.	.	.	.	.	.	.	.	.	.	.	.	.
*	*	*	*	*v	*v	*	*	*	*	*	*	*	*	*	*	*	*	*	*	*	*	*v	*v	*	*	*	*	*	*	*	*
*	*	*	*	*	*	*v	*v	*	*	*	*	*	*	*	*	*	*	*	*	*	*	*	*	*	*	*	*	*	*
=30	=30	=30	=30	=30	=30	=30	=30	=30	=30	=30	=30	=30	=30	=30	=30	=30	=30	=30	=30	=30	=30	=30	=30	=30	=30	=30	=30	=30
*	*	*	*	*	*	*	*	*	*	*	*	*	*	*	*	*	*	*	*	*	*	*^	*	*	*	*	*	*
!	!	!	!	!	!	!	!	!	!	!	!	!	!	!	!	!	!	!	!	!LO:TX:a:t=a dué:color=grey	!	!	!	!	!	!	!LO:N:acc=#	!	!
8E\L	.	8e\L	.	8e\	.	8ee\	Wszy-	.	16G#X\LL	.	16g#X\LLyy	.	16g#X\LL	.	1ryy	8E\L	.	8e\L	.	8ee\L	.	1g	8e\L	.	1ryy	8ee\L	8eeX\L	8ee\L	8eee\L
.	.	.	.	.	.	.	.	.	16G#\	.	16g#\	.	16g#\	.	.	.	.	.	.	.	.	.	.	.	.	.	.	.	.
8D\	.	8d\	.	8d\	.	8dd\	-scy	.	16Bn\	.	16bn\yy	.	16bn\	.	.	8D\	.	8d\	.	8dd\	.	.	8d\	.	.	8dd\	8dd\	8dd\	8ddd\
.	.	.	.	.	.	.	.	.	16B\	.	16b\	.	16b\	.	.	.	.	.	.	.	.	.	.	.	.	.	.	.	.
8C#X\	.	8c#X\	.	8c#X\	.	8cc#X\	za	.	16e\	.	16ee\yy	.	16ee\	.	.	8C#X\	.	8c#X\	.	8cc#X\	.	.	8c#X\	.	.	8cc#X\	8cc#X\	8cc#X\	8ccc#X\
.	.	.	.	.	.	.	.	.	16e\	.	16ee\	.	16ee\	.	.	.	.	.	.	.	.	.	.	.	.	.	.	.	.
8BBn\J	.	8Bn\J	.	8Bn\	.	8bn\	nim	.	16d\	.	16dd\yy	.	16dd\	.	.	8BBn\J	.	8Bn\J	.	8b-X\J	.	.	8B-X\J	.	.	8bX\J	8bX\J	8bn\J	8bbn\J
.	.	.	.	.	.	.	.	.	16d\JJ	.	16dd\JJ	.	16dd\JJ	.	.	.	.	.	.	.	.	.	.	.	.	.	.	.	.
!LO:TX:t=P:problem=mixed beam	!	!	!	!	!	!	!	!	!	!	!	!	!	!	!	!	!	!	!	!	!	!	!	!	!	!	!	!	!
8AA/L	.	8A\L	.	8A\L	.	8a/L	na	.	16c#X\LL	.	16cc#X\LLyy	.	16cc#X\LL	.	.	8AA/L	.	8A\L	.	8a/L	.	.	8A/L	.	.	8a\L	8a\L	8aa\L	8aa\L
.	.	.	.	.	.	.	.	.	16c#\	.	16cc#\	.	16cc#\	.	.	.	.	.	.	.	.	.	.	.	.	.	.	.	.
8G\	.	8G\	.	8G\J	.	8g/J	.	.	16e\	.	16ee\yy	.	16ee\	.	.	8GG/	.	8G\	.	8g/	.	.	8G/	.	.	8g\	8g\	8gg\	8gg\
.	.	.	.	.	.	.	.	.	16e\	.	16ee\	.	16ee\	.	.	.	.	.	.	.	.	.	.	.	.	.	.	.	.
8F#X\	.	8F\	.	8F\L	.	8f/L	wschód	.	16a\	.	16aa\yy	.	16aa\	.	.	8FF/	.	8F\	.	8f/	.	.	8F/	.	.	8f\	8f\	8ff\	8ff\
.	.	.	.	.	.	.	.	.	16a\	.	16aa\	.	16aa\	.	.	.	.	.	.	.	.	.	.	.	.	.	.	.	.
!	!	!	!	!	!	!	!	!	!	!	!	!	!	!	!	!	!	!	!	!	!	!	!	!	!	!	!LO:N:acc=#	!	!
8E\J	.	8E\J	.	8E\J	.	8e/J	.	.	16g\	.	16gg\yy	.	16gg\	.	.	8EE/J	.	8E\J	.	8e/J	.	.	8E/J	.	.	8e\J	8eX\J	8ee\J	8ee\J
.	.	.	.	.	.	.	.	.	16g\JJ	.	16gg\JJ	.	16gg\JJ	.	.	.	.	.	.	.	.	.	.	.	.	.	.	.	.
*	*	*	*	*	*	*	*	*	*	*	*	*	*	*	*	*	*	*	*	*	*	*v	*v	*	*	*	*	*	*
=31	=31	=31	=31	=31	=31	=31	=31	=31	=31	=31	=31	=31	=31	=31	=31	=31	=31	=31	=31	=31	=31	=31	=31	=31	=31	=31	=31	=31
*	*	*	*	*^	*	*^	*	*	*	*	*	*	*	*	*	*	*	*^	*	*^	*	*	*	*	*	*	*	*
*	*	*2\right	*	*	*	*	*	*	*	*	*	*	*	*	*	*	*	*	*	*	*	*	*	*	*	*	*	*	*	*	*	*
*	*	*tremolo	*	*	*	*	*	*	*	*	*	*	*	*	*	*	*	*	*	*	*	*	*	*	*	*	*	*	*	*	*	*
8D\L	.	8D\L	.	[>2D\	[<2D\	.	[>2d/	[<2d/	le-	.	16F#X/LL	.	16ff#XLLyy 16dd\yy	.	16ff#XLL 16dd\	.	1ryy	[>2D\	.	[>2D\	[<2D\	.	[>2d/	[<2d/	.	[>2d [<2D/	.	1ryy	2d/	2d/	2dd\	2dd\
.	.	.	.	.	.	.	.	.	.	.	16F#/	.	16ff# 16dd\	.	16ff# 16dd\	.	.	.	.	.	.	.	.	.	.	.	.	.	.	.	.	.
8E\	.	8D\	.	.	.	.	.	.	.	.	16G/	.	16ggyy 16dd\yy	.	16gg 16dd\	.	.	.	.	.	.	.	.	.	.	.	.	.	.	.	.	.
.	.	.	.	.	.	.	.	.	.	.	16G/	.	16gg 16dd\	.	16gg 16dd\	.	.	.	.	.	.	.	.	.	.	.	.	.	.	.	.	.
8F#X\	.	8D\	.	.	.	.	.	.	.	.	16A/	.	16aayy 16dd\yy	.	16aa 16dd\	.	.	.	.	.	.	.	.	.	.	.	.	.	.	.	.	.
.	.	.	.	.	.	.	.	.	.	.	16A/	.	16aa 16dd\	.	16aa 16dd\	.	.	.	.	.	.	.	.	.	.	.	.	.	.	.	.	.
8G\J	.	8D\J	.	.	.	.	.	.	.	.	16B-/	.	16bb-yy 16dd\yy	.	16bb- 16dd\	.	.	.	.	.	.	.	.	.	.	.	.	.	.	.	.	.
.	.	.	.	.	.	.	.	.	.	.	16B-/JJ	.	16bb-JJ 16dd\	.	16bb-JJ 16dd\	.	.	.	.	.	.	.	.	.	.	.	.	.	.	.	.	.
8AA\L	.	8D\L	.	8D\]	8D\]	.	8d/]	8d/]	.	.	16c\LL	.	16cccLLyy 16dd\yy	.	16cccLL 16dd\	.	.	8D\]	.	8D\]	8D\]	.	8d/]	8d/]	.	8d] 8D/]	.	.	2r	2r	2r	2r
.	.	.	.	.	.	.	.	.	.	.	16c\	.	16ccc 16dd\	.	16ccc 16dd\	.	.	.	.	.	.	.	.	.	.	.	.	.	.	.	.	.
8BB-\	.	8D\	.	8d 8D\	8ryy	.	8dd\	8ryy	-cą	.	16d\	.	16dddyy 16dd\yy	.	16ddd 16dd\	.	.	8D\L	.	8dL 8D\	8ryy	.	8ddL 8d/	8ryy	.	8ddL 8D\	.	.	.	.	.	.
.	.	.	.	.	.	.	.	.	.	.	16d\	.	16ddd 16dd\	.	16ddd 16dd\	.	.	.	.	.	.	.	.	.	.	.	.	.	.	.	.	.
8C\	.	8D\	.	8d 8D\	4ryy	.	8dd\	4ryy	na	.	16e\	.	16eeeyy 16dd\yy	.	16eee 16dd\	.	.	8D\	.	8d 8D\	4ryy	.	8dd 8d/	4ryy	.	8dd 8D\	.	.	.	.	.	.
.	.	.	.	.	.	.	.	.	.	.	16e\	.	16eee 16dd\	.	16eee 16dd\	.	.	.	.	.	.	.	.	.	.	.	.	.	.	.	.	.
8D\J	.	8D\J	.	8d 8D\	.	.	8dd\	.	wschód	.	16f#X\	.	16fff#Xyy 16dd\yy	.	16fff#X 16dd\	.	.	8D\J	.	8dJ 8D\	.	.	8ddJ 8d/	.	.	8ddJ 8D\	.	.	.	.	.	.
.	.	.	.	.	.	.	.	.	.	.	16f#\JJ	.	16fff#JJ 16dd\	.	16fff#JJ 16dd\	.	.	.	.	.	.	.	.	.	.	.	.	.	.	.	.	.
*	*	*	*	*v	*v	*	*	*	*	*	*	*	*	*	*	*	*	*	*	*v	*v	*	*v	*v	*	*	*	*	*	*	*	*
*	*	*	*	*	*	*v	*v	*	*	*	*	*	*	*	*	*	*	*	*	*	*	*	*	*	*	*	*	*	*
=32	=32	=32	=32	=32	=32	=32	=32	=32	=32	=32	=32	=32	=32	=32	=32	=32	=32	=32	=32	=32	=32	=32	=32	=32	=32	=32	=32	=32
*tremolo	*	*	*	*	*	*	*	*	*	*	*	*	*	*	*	*	*	*	*	*	*	*	*	*	*	*	*	*
!	!	!	!	!	!LO:DY:b:t=fffo	!	!	!LO:DY:b:t=fffo	!	!	!	!	!	!	!	!	!	!	!	!	!	!	!	!	!	!	!	!
16D\LL	.	32d\LLL	.	[>1d [<1B-	fff	[>1gg [<1dd	le-	fff	32gLLL 32G\	.	32ddLLL 32b-\	.	32ggL 32dd\	.	1ryy	[>1D	.	[>1d [<1B-	.	[>1gg [<1dd	.	[>1dd [<1d	.	[>1B-	[>1d	[>1g	[>1gg	[>1ddd
.	.	32d\	.	.	.	.	.	.	32g 32G\	.	32dd 32b-\	.	32gg 32dd\	.	.	.	.	.	.	.	.	.	.	.	.	.	.	.
16D\	.	32d\	.	.	.	.	.	.	32g 32G\	.	32dd 32b-\	.	32gg 32dd\	.	.	.	.	.	.	.	.	.	.	.	.	.	.	.
.	.	32d\	.	.	.	.	.	.	32g 32G\	.	32dd 32b-\	.	32gg 32dd\	.	.	.	.	.	.	.	.	.	.	.	.	.	.	.
16D\	.	32d\	.	.	.	.	.	.	32g 32G\	.	32dd 32b-\	.	32gg 32dd\	.	.	.	.	.	.	.	.	.	.	.	.	.	.	.
.	.	32d\	.	.	.	.	.	.	32g 32G\	.	32dd 32b-\	.	32gg 32dd\	.	.	.	.	.	.	.	.	.	.	.	.	.	.	.
16D\	.	32d\	.	.	.	.	.	.	32g 32G\	.	32dd 32b-\	.	32gg 32dd\	.	.	.	.	.	.	.	.	.	.	.	.	.	.	.
.	.	32d\	.	.	.	.	.	.	32g 32G\	.	32dd 32b-\	.	32gg 32dd\	.	.	.	.	.	.	.	.	.	.	.	.	.	.	.
16D\	.	32d\	.	.	.	.	.	.	32g 32G\	.	32dd 32b-\	.	32gg 32dd\	.	.	.	.	.	.	.	.	.	.	.	.	.	.	.
.	.	32d\	.	.	.	.	.	.	32g 32G\	.	32dd 32b-\	.	32gg 32dd\	.	.	.	.	.	.	.	.	.	.	.	.	.	.	.
16D\	.	32d\	.	.	.	.	.	.	32g 32G\	.	32dd 32b-\	.	32gg 32dd\	.	.	.	.	.	.	.	.	.	.	.	.	.	.	.
.	.	32d\	.	.	.	.	.	.	32g 32G\	.	32dd 32b-\	.	32gg 32dd\	.	.	.	.	.	.	.	.	.	.	.	.	.	.	.
16D\	.	32d\	.	.	.	.	.	.	32g 32G\	.	32dd 32b-\	.	32gg 32dd\	.	.	.	.	.	.	.	.	.	.	.	.	.	.	.
.	.	32d\	.	.	.	.	.	.	32g 32G\	.	32dd 32b-\	.	32gg 32dd\	.	.	.	.	.	.	.	.	.	.	.	.	.	.	.
16D\	.	32d\	.	.	.	.	.	.	32g 32G\	.	32dd 32b-\	.	32gg 32dd\	.	.	.	.	.	.	.	.	.	.	.	.	.	.	.
.	.	32d\	.	.	.	.	.	.	32g 32G\	.	32dd 32b-\	.	32gg 32dd\	.	.	.	.	.	.	.	.	.	.	.	.	.	.	.
16D\	.	32d\	.	.	.	.	.	.	32g 32G\	.	32dd 32b-\	.	32gg 32dd\	.	.	.	.	.	.	.	.	.	.	.	.	.	.	.
.	.	32d\	.	.	.	.	.	.	32g 32G\	.	32dd 32b-\	.	32gg 32dd\	.	.	.	.	.	.	.	.	.	.	.	.	.	.	.
16D\	.	32d\	.	.	.	.	.	.	32g 32G\	.	32dd 32b-\	.	32gg 32dd\	.	.	.	.	.	.	.	.	.	.	.	.	.	.	.
.	.	32d\	.	.	.	.	.	.	32g 32G\	.	32dd 32b-\	.	32gg 32dd\	.	.	.	.	.	.	.	.	.	.	.	.	.	.	.
16D\	.	32d\	.	.	.	.	.	.	32g 32G\	.	32dd 32b-\	.	32gg 32dd\	.	.	.	.	.	.	.	.	.	.	.	.	.	.	.
.	.	32d\	.	.	.	.	.	.	32g 32G\	.	32dd 32b-\	.	32gg 32dd\	.	.	.	.	.	.	.	.	.	.	.	.	.	.	.
16D\	.	32d\	.	.	.	.	.	.	32g 32G\	.	32dd 32b-\	.	32gg 32dd\	.	.	.	.	.	.	.	.	.	.	.	.	.	.	.
.	.	32d\	.	.	.	.	.	.	32g 32G\	.	32dd 32b-\	.	32gg 32dd\	.	.	.	.	.	.	.	.	.	.	.	.	.	.	.
16D\	.	32d\	.	.	.	.	.	.	32g 32G\	.	32dd 32b-\	.	32gg 32dd\	.	.	.	.	.	.	.	.	.	.	.	.	.	.	.
.	.	32d\	.	.	.	.	.	.	32g 32G\	.	32dd 32b-\	.	32gg 32dd\	.	.	.	.	.	.	.	.	.	.	.	.	.	.	.
16D\	.	32d\	.	.	.	.	.	.	32g 32G\	.	32dd 32b-\	.	32gg 32dd\	.	.	.	.	.	.	.	.	.	.	.	.	.	.	.
.	.	32d\	.	.	.	.	.	.	32g 32G\	.	32dd 32b-\	.	32gg 32dd\	.	.	.	.	.	.	.	.	.	.	.	.	.	.	.
16D\	.	32d\	.	.	.	.	.	.	32g 32G\	.	32dd 32b-\	.	32gg 32dd\	.	.	.	.	.	.	.	.	.	.	.	.	.	.	.
.	.	32d\	.	.	.	.	.	.	32g 32G\	.	32dd 32b-\	.	32gg 32dd\	.	.	.	.	.	.	.	.	.	.	.	.	.	.	.
16D\JJ	.	32d\	.	.	.	.	.	.	32g 32G\	.	32dd 32b-\	.	32gg 32dd\	.	.	.	.	.	.	.	.	.	.	.	.	.	.	.
.	.	32d\JJJ	.	.	.	.	.	.	32gJJJ 32G\	.	32ddJJJ 32b-\	.	32ggJ 32dd\	.	.	.	.	.	.	.	.	.	.	.	.	.	.	.
!!LO:PB:g=original
=33	=33	=33	=33	=33	=33	=33	=33	=33	=33	=33	=33	=33	=33	=33	=33	=33	=33	=33	=33	=33	=33	=33	=33	=33	=33	=33	=33	=33
16D\LL	.	32d\LLL	.	1d] 1B-]	.	1gg] 1dd]	.	.	32gLLL 32G\	.	32ddLLL 32b-\	.	32ggLLL 32dd\	.	1ryy	1D]	.	1d] 1B-]	.	1gg] 1dd]	.	1dd] 1d]	.	1B-]	1d]	1g]	1gg]	1ddd]
.	.	32d\	.	.	.	.	.	.	32g 32G\	.	32dd 32b-\	.	32gg 32dd\	.	.	.	.	.	.	.	.	.	.	.	.	.	.	.
16D\	.	32d\	.	.	.	.	.	.	32g 32G\	.	32dd 32b-\	.	32gg 32dd\	.	.	.	.	.	.	.	.	.	.	.	.	.	.	.
.	.	32d\	.	.	.	.	.	.	32g 32G\	.	32dd 32b-\	.	32gg 32dd\	.	.	.	.	.	.	.	.	.	.	.	.	.	.	.
16D\	.	32d\	.	.	.	.	.	.	32g 32G\	.	32dd 32b-\	.	32gg 32dd\	.	.	.	.	.	.	.	.	.	.	.	.	.	.	.
.	.	32d\	.	.	.	.	.	.	32g 32G\	.	32dd 32b-\	.	32gg 32dd\	.	.	.	.	.	.	.	.	.	.	.	.	.	.	.
16D\	.	32d\	.	.	.	.	.	.	32g 32G\	.	32dd 32b-\	.	32gg 32dd\	.	.	.	.	.	.	.	.	.	.	.	.	.	.	.
.	.	32d\	.	.	.	.	.	.	32g 32G\	.	32dd 32b-\	.	32gg 32dd\	.	.	.	.	.	.	.	.	.	.	.	.	.	.	.
16D\	.	32d\	.	.	.	.	.	.	32g 32G\	.	32dd 32b-\	.	32gg 32dd\	.	.	.	.	.	.	.	.	.	.	.	.	.	.	.
.	.	32d\	.	.	.	.	.	.	32g 32G\	.	32dd 32b-\	.	32gg 32dd\	.	.	.	.	.	.	.	.	.	.	.	.	.	.	.
16D\	.	32d\	.	.	.	.	.	.	32g 32G\	.	32dd 32b-\	.	32gg 32dd\	.	.	.	.	.	.	.	.	.	.	.	.	.	.	.
.	.	32d\	.	.	.	.	.	.	32g 32G\	.	32dd 32b-\	.	32gg 32dd\	.	.	.	.	.	.	.	.	.	.	.	.	.	.	.
16D\	.	32d\	.	.	.	.	.	.	32g 32G\	.	32dd 32b-\	.	32gg 32dd\	.	.	.	.	.	.	.	.	.	.	.	.	.	.	.
.	.	32d\	.	.	.	.	.	.	32g 32G\	.	32dd 32b-\	.	32gg 32dd\	.	.	.	.	.	.	.	.	.	.	.	.	.	.	.
16D\	.	32d\	.	.	.	.	.	.	32g 32G\	.	32dd 32b-\	.	32gg 32dd\	.	.	.	.	.	.	.	.	.	.	.	.	.	.	.
.	.	32d\	.	.	.	.	.	.	32g 32G\	.	32dd 32b-\	.	32gg 32dd\	.	.	.	.	.	.	.	.	.	.	.	.	.	.	.
16D\	.	32d\	.	.	.	.	.	.	32g 32G\	.	32dd 32b-\	.	32gg 32dd\	.	.	.	.	.	.	.	.	.	.	.	.	.	.	.
.	.	32d\	.	.	.	.	.	.	32g 32G\	.	32dd 32b-\	.	32gg 32dd\	.	.	.	.	.	.	.	.	.	.	.	.	.	.	.
16D\	.	32d\	.	.	.	.	.	.	32g 32G\	.	32dd 32b-\	.	32gg 32dd\	.	.	.	.	.	.	.	.	.	.	.	.	.	.	.
.	.	32d\	.	.	.	.	.	.	32g 32G\	.	32dd 32b-\	.	32gg 32dd\	.	.	.	.	.	.	.	.	.	.	.	.	.	.	.
16D\	.	32d\	.	.	.	.	.	.	32g 32G\	.	32dd 32b-\	.	32gg 32dd\	.	.	.	.	.	.	.	.	.	.	.	.	.	.	.
.	.	32d\	.	.	.	.	.	.	32g 32G\	.	32dd 32b-\	.	32gg 32dd\	.	.	.	.	.	.	.	.	.	.	.	.	.	.	.
16D\	.	32d\	.	.	.	.	.	.	32g 32G\	.	32dd 32b-\	.	32gg 32dd\	.	.	.	.	.	.	.	.	.	.	.	.	.	.	.
.	.	32d\	.	.	.	.	.	.	32g 32G\	.	32dd 32b-\	.	32gg 32dd\	.	.	.	.	.	.	.	.	.	.	.	.	.	.	.
16D\	.	32d\	.	.	.	.	.	.	32g 32G\	.	32dd 32b-\	.	32gg 32dd\	.	.	.	.	.	.	.	.	.	.	.	.	.	.	.
.	.	32d\	.	.	.	.	.	.	32g 32G\	.	32dd 32b-\	.	32gg 32dd\	.	.	.	.	.	.	.	.	.	.	.	.	.	.	.
16D\	.	32d\	.	.	.	.	.	.	32g 32G\	.	32dd 32b-\	.	32gg 32dd\	.	.	.	.	.	.	.	.	.	.	.	.	.	.	.
.	.	32d\	.	.	.	.	.	.	32g 32G\	.	32dd 32b-\	.	32gg 32dd\	.	.	.	.	.	.	.	.	.	.	.	.	.	.	.
16D\	.	32d\	.	.	.	.	.	.	32g 32G\	.	32dd 32b-\	.	32gg 32dd\	.	.	.	.	.	.	.	.	.	.	.	.	.	.	.
.	.	32d\	.	.	.	.	.	.	32g 32G\	.	32dd 32b-\	.	32gg 32dd\	.	.	.	.	.	.	.	.	.	.	.	.	.	.	.
16D\JJ	.	32d\	.	.	.	.	.	.	32g 32G\	.	32dd 32b-\	.	32gg 32dd\	.	.	.	.	.	.	.	.	.	.	.	.	.	.	.
.	.	32d\JJJ	.	.	.	.	.	.	32gJJJ 32G\	.	32ddJJJ 32b-\	.	32ggJJJ 32dd\	.	.	.	.	.	.	.	.	.	.	.	.	.	.	.
=34	=34	=34	=34	=34	=34	=34	=34	=34	=34	=34	=34	=34	=34	=34	=34	=34	=34	=34	=34	=34	=34	=34	=34	=34	=34	=34	=34	=34
16D\LL	.	32d\LLL	.	[>1A [<1D	.	[>1ff#X [<1dd	-cą	.	32aLLL 32A\	.	32ff#XLLL 32a\	.	32ff#XLLL 32dd\	.	1ryy	[>1D	.	[>1A [<1D	.	[>1ff#X [<1dd	.	[>1dd [<1d	.	[>1A	[>1d	[>1f#X	[>1ff#X	[>1ddd
.	.	32d\	.	.	.	.	.	.	32a 32A\	.	32ff# 32a\	.	32ff# 32dd\	.	.	.	.	.	.	.	.	.	.	.	.	.	.	.
16D\	.	32d\	.	.	.	.	.	.	32a 32A\	.	32ff# 32a\	.	32ff# 32dd\	.	.	.	.	.	.	.	.	.	.	.	.	.	.	.
.	.	32d\	.	.	.	.	.	.	32a 32A\	.	32ff# 32a\	.	32ff# 32dd\	.	.	.	.	.	.	.	.	.	.	.	.	.	.	.
16D\	.	32d\	.	.	.	.	.	.	32a 32A\	.	32ff# 32a\	.	32ff# 32dd\	.	.	.	.	.	.	.	.	.	.	.	.	.	.	.
.	.	32d\	.	.	.	.	.	.	32a 32A\	.	32ff# 32a\	.	32ff# 32dd\	.	.	.	.	.	.	.	.	.	.	.	.	.	.	.
16D\	.	32d\	.	.	.	.	.	.	32a 32A\	.	32ff# 32a\	.	32ff# 32dd\	.	.	.	.	.	.	.	.	.	.	.	.	.	.	.
.	.	32d\	.	.	.	.	.	.	32a 32A\	.	32ff# 32a\	.	32ff# 32dd\	.	.	.	.	.	.	.	.	.	.	.	.	.	.	.
16D\	.	32d\	.	.	.	.	.	.	32a 32A\	.	32ff# 32a\	.	32ff# 32dd\	.	.	.	.	.	.	.	.	.	.	.	.	.	.	.
.	.	32d\	.	.	.	.	.	.	32a 32A\	.	32ff# 32a\	.	32ff# 32dd\	.	.	.	.	.	.	.	.	.	.	.	.	.	.	.
16D\	.	32d\	.	.	.	.	.	.	32a 32A\	.	32ff# 32a\	.	32ff# 32dd\	.	.	.	.	.	.	.	.	.	.	.	.	.	.	.
.	.	32d\	.	.	.	.	.	.	32a 32A\	.	32ff# 32a\	.	32ff# 32dd\	.	.	.	.	.	.	.	.	.	.	.	.	.	.	.
16D\	.	32d\	.	.	.	.	.	.	32a 32A\	.	32ff# 32a\	.	32ff# 32dd\	.	.	.	.	.	.	.	.	.	.	.	.	.	.	.
.	.	32d\	.	.	.	.	.	.	32a 32A\	.	32ff# 32a\	.	32ff# 32dd\	.	.	.	.	.	.	.	.	.	.	.	.	.	.	.
16D\	.	32d\	.	.	.	.	.	.	32a 32A\	.	32ff# 32a\	.	32ff# 32dd\	.	.	.	.	.	.	.	.	.	.	.	.	.	.	.
.	.	32d\	.	.	.	.	.	.	32a 32A\	.	32ff# 32a\	.	32ff# 32dd\	.	.	.	.	.	.	.	.	.	.	.	.	.	.	.
16D\	.	32d\	.	.	.	.	.	.	32a 32A\	.	32ff# 32a\	.	32ff# 32dd\	.	.	.	.	.	.	.	.	.	.	.	.	.	.	.
.	.	32d\	.	.	.	.	.	.	32a 32A\	.	32ff# 32a\	.	32ff# 32dd\	.	.	.	.	.	.	.	.	.	.	.	.	.	.	.
16D\	.	32d\	.	.	.	.	.	.	32a 32A\	.	32ff# 32a\	.	32ff# 32dd\	.	.	.	.	.	.	.	.	.	.	.	.	.	.	.
.	.	32d\	.	.	.	.	.	.	32a 32A\	.	32ff# 32a\	.	32ff# 32dd\	.	.	.	.	.	.	.	.	.	.	.	.	.	.	.
16D\	.	32d\	.	.	.	.	.	.	32a 32A\	.	32ff# 32a\	.	32ff# 32dd\	.	.	.	.	.	.	.	.	.	.	.	.	.	.	.
.	.	32d\	.	.	.	.	.	.	32a 32A\	.	32ff# 32a\	.	32ff# 32dd\	.	.	.	.	.	.	.	.	.	.	.	.	.	.	.
16D\	.	32d\	.	.	.	.	.	.	32a 32A\	.	32ff# 32a\	.	32ff# 32dd\	.	.	.	.	.	.	.	.	.	.	.	.	.	.	.
.	.	32d\	.	.	.	.	.	.	32a 32A\	.	32ff# 32a\	.	32ff# 32dd\	.	.	.	.	.	.	.	.	.	.	.	.	.	.	.
16D\	.	32d\	.	.	.	.	.	.	32a 32A\	.	32ff# 32a\	.	32ff# 32dd\	.	.	.	.	.	.	.	.	.	.	.	.	.	.	.
.	.	32d\	.	.	.	.	.	.	32a 32A\	.	32ff# 32a\	.	32ff# 32dd\	.	.	.	.	.	.	.	.	.	.	.	.	.	.	.
16D\	.	32d\	.	.	.	.	.	.	32a 32A\	.	32ff# 32a\	.	32ff# 32dd\	.	.	.	.	.	.	.	.	.	.	.	.	.	.	.
.	.	32d\	.	.	.	.	.	.	32a 32A\	.	32ff# 32a\	.	32ff# 32dd\	.	.	.	.	.	.	.	.	.	.	.	.	.	.	.
16D\	.	32d\	.	.	.	.	.	.	32a 32A\	.	32ff# 32a\	.	32ff# 32dd\	.	.	.	.	.	.	.	.	.	.	.	.	.	.	.
.	.	32d\	.	.	.	.	.	.	32a 32A\	.	32ff# 32a\	.	32ff# 32dd\	.	.	.	.	.	.	.	.	.	.	.	.	.	.	.
16D\JJ	.	32d\	.	.	.	.	.	.	32a 32A\	.	32ff# 32a\	.	32ff# 32dd\	.	.	.	.	.	.	.	.	.	.	.	.	.	.	.
.	.	32d\JJJ	.	.	.	.	.	.	32aJJJ 32A\	.	32ff#JJJ 32a\	.	32ff#JJJ 32dd\	.	.	.	.	.	.	.	.	.	.	.	.	.	.	.
=35	=35	=35	=35	=35	=35	=35	=35	=35	=35	=35	=35	=35	=35	=35	=35	=35	=35	=35	=35	=35	=35	=35	=35	=35	=35	=35	=35	=35
16D\LL	.	32d\LLL	.	4A] 4D\]	.	4ff#X] 4dd\]	.	.	32aLLL 32A\	.	32ff#XLLL 32a\	.	32ff#XLLL 32dd\	.	1ryy	1D]	.	1A] 1D]	.	1ff#] 1dd]	.	1dd] 1d]	.	4A\]	4d/]	4f#/]	4ff#\]	4ddd\]
.	.	32d\	.	.	.	.	.	.	32a 32A\	.	32ff# 32a\	.	32ff# 32dd\	.	.	.	.	.	.	.	.	.	.	.	.	.	.	.
16D\	.	32d\	.	.	.	.	.	.	32a 32A\	.	32ff# 32a\	.	32ff# 32dd\	.	.	.	.	.	.	.	.	.	.	.	.	.	.	.
.	.	32d\	.	.	.	.	.	.	32a 32A\	.	32ff# 32a\	.	32ff# 32dd\	.	.	.	.	.	.	.	.	.	.	.	.	.	.	.
16D\	.	32d\	.	.	.	.	.	.	32a 32A\	.	32ff# 32a\	.	32ff# 32dd\	.	.	.	.	.	.	.	.	.	.	.	.	.	.	.
.	.	32d\	.	.	.	.	.	.	32a 32A\	.	32ff# 32a\	.	32ff# 32dd\	.	.	.	.	.	.	.	.	.	.	.	.	.	.	.
16D\	.	32d\	.	.	.	.	.	.	32a 32A\	.	32ff# 32a\	.	32ff# 32dd\	.	.	.	.	.	.	.	.	.	.	.	.	.	.	.
.	.	32d\	.	.	.	.	.	.	32a 32A\	.	32ff# 32a\	.	32ff# 32dd\	.	.	.	.	.	.	.	.	.	.	.	.	.	.	.
16D\	.	32d\	.	4r	.	4r	.	.	32a 32A\	.	32ff# 32a\	.	32ff# 32dd\	.	.	.	.	.	.	.	.	.	.	4r	4r	4r	4r	4r
.	.	32d\	.	.	.	.	.	.	32a 32A\	.	32ff# 32a\	.	32ff# 32dd\	.	.	.	.	.	.	.	.	.	.	.	.	.	.	.
16D\	.	32d\	.	.	.	.	.	.	32a 32A\	.	32ff# 32a\	.	32ff# 32dd\	.	.	.	.	.	.	.	.	.	.	.	.	.	.	.
.	.	32d\	.	.	.	.	.	.	32a 32A\	.	32ff# 32a\	.	32ff# 32dd\	.	.	.	.	.	.	.	.	.	.	.	.	.	.	.
16D\	.	32d\	.	.	.	.	.	.	32a 32A\	.	32ff# 32a\	.	32ff# 32dd\	.	.	.	.	.	.	.	.	.	.	.	.	.	.	.
.	.	32d\	.	.	.	.	.	.	32a 32A\	.	32ff# 32a\	.	32ff# 32dd\	.	.	.	.	.	.	.	.	.	.	.	.	.	.	.
16D\	.	32d\	.	.	.	.	.	.	32a 32A\	.	32ff# 32a\	.	32ff# 32dd\	.	.	.	.	.	.	.	.	.	.	.	.	.	.	.
.	.	32d\	.	.	.	.	.	.	32a 32A\	.	32ff# 32a\	.	32ff# 32dd\	.	.	.	.	.	.	.	.	.	.	.	.	.	.	.
16D\	.	32d\	.	2r	.	2r	.	.	32a 32A\	.	32ff# 32a\	.	32ff# 32dd\	.	.	.	.	.	.	.	.	.	.	2r	2r	2r	2r	2r
.	.	32d\	.	.	.	.	.	.	32a 32A\	.	32ff# 32a\	.	32ff# 32dd\	.	.	.	.	.	.	.	.	.	.	.	.	.	.	.
16D\	.	32d\	.	.	.	.	.	.	32a 32A\	.	32ff# 32a\	.	32ff# 32dd\	.	.	.	.	.	.	.	.	.	.	.	.	.	.	.
.	.	32d\	.	.	.	.	.	.	32a 32A\	.	32ff# 32a\	.	32ff# 32dd\	.	.	.	.	.	.	.	.	.	.	.	.	.	.	.
16D\	.	32d\	.	.	.	.	.	.	32a 32A\	.	32ff# 32a\	.	32ff# 32dd\	.	.	.	.	.	.	.	.	.	.	.	.	.	.	.
.	.	32d\	.	.	.	.	.	.	32a 32A\	.	32ff# 32a\	.	32ff# 32dd\	.	.	.	.	.	.	.	.	.	.	.	.	.	.	.
16D\	.	32d\	.	.	.	.	.	.	32a 32A\	.	32ff# 32a\	.	32ff# 32dd\	.	.	.	.	.	.	.	.	.	.	.	.	.	.	.
.	.	32d\	.	.	.	.	.	.	32a 32A\	.	32ff# 32a\	.	32ff# 32dd\	.	.	.	.	.	.	.	.	.	.	.	.	.	.	.
16D\	.	32d\	.	.	.	.	.	.	32a 32A\	.	32ff# 32a\	.	32ff# 32dd\	.	.	.	.	.	.	.	.	.	.	.	.	.	.	.
.	.	32d\	.	.	.	.	.	.	32a 32A\	.	32ff# 32a\	.	32ff# 32dd\	.	.	.	.	.	.	.	.	.	.	.	.	.	.	.
16D\	.	32d\	.	.	.	.	.	.	32a 32A\	.	32ff# 32a\	.	32ff# 32dd\	.	.	.	.	.	.	.	.	.	.	.	.	.	.	.
.	.	32d\	.	.	.	.	.	.	32a 32A\	.	32ff# 32a\	.	32ff# 32dd\	.	.	.	.	.	.	.	.	.	.	.	.	.	.	.
16D\	.	32d\	.	.	.	.	.	.	32a 32A\	.	32ff# 32a\	.	32ff# 32dd\	.	.	.	.	.	.	.	.	.	.	.	.	.	.	.
.	.	32d\	.	.	.	.	.	.	32a 32A\	.	32ff# 32a\	.	32ff# 32dd\	.	.	.	.	.	.	.	.	.	.	.	.	.	.	.
16D\JJ	.	32d\	.	.	.	.	.	.	32a 32A\	.	32ff# 32a\	.	32ff# 32dd\	.	.	.	.	.	.	.	.	.	.	.	.	.	.	.
.	.	32d\JJJ	.	.	.	.	.	.	32aJJJ 32A\	.	32ff#JJJ 32a\	.	32ff#JJJ 32dd\	.	.	.	.	.	.	.	.	.	.	.	.	.	.	.
=36	=36	=36	=36	=36	=36	=36	=36	=36	=36	=36	=36	=36	=36	=36	=36	=36	=36	=36	=36	=36	=36	=36	=36	=36	=36	=36	=36	=36
1D;>	.	1d;>	.	1r;>	.	1rb;>	.	.	1a 1A;>	.	1ff#X 1a;>	.	1ff#X 1dd;>	.	1ryy	1D;>	.	1A 1D;>	.	1ff#X 1dd;>	.	1dd 1d;>	.	1rD;>	1rb;>	1rb;>	1r;>	1rb;>
!	!	!	!	!	!	!	!	!	!	!	!	!	!	!	!LO:TX:a:i:t=⟨....... \n....... .......⟩ \n184/2 93 Krakaú	!	!	!	!	!	!	!	!	!	!	!	!	!
==	==	==	==	==	==	==	==	==	==	==	==	==	==	==	==	==	==	==	==	==	==	==	==	==	==	==	==	==
*-	*-	*-	*-	*-	*-	*-	*-	*-	*-	*-	*-	*-	*-	*-	*-	*-	*-	*-	*-	*-	*-	*-	*-	*-	*-	*-	*-	*-
!!!system-decoration: [(s1,s2,s3,s4,s5,s6,s7,s8,s9,s10)][(s11,s12,s13,s14,s15,s16,s17)]
!!!RDF**kern: > = above
!!!RDF**kern: < = below
!!!ENC: Marcin Jachim
!!!END: 2021-08-06
!!!EED: Antoni Szymański
!!!EST: 2021-09-09
